;FLAVOR:Marlin
;TIME:1319
;Filament used: 2.97473m
;Layer height: 0.2
;MINX:91.995
;MINY:89.495
;MINZ:0.2
;MAXX:142.809
;MAXY:140.309
;MAXZ:27.4
;TARGET_MACHINE.NAME:ELEGOO NEPTUNE 4 Pro
;Generated with Cura_SteamEngine 5.7.1
M82 ;absolute extrusion mode
;ELEGOO NEPTUNE 4 / 4 PRO
M220 S100 ;Set the feed speed to 100%
M221 S100 ;Set the flow rate to 100%
M104 S140 ;Start heating extruder
M190 S60 ;Wait for the bed to reach print temp
G90
G28 ;home
G1 Z10 F300
G1 X67.5 Y0 F6000
G1 Z0 F300
M109 S210 ;Wait for extruder to reach print temp
G92 E0 ;Reset Extruder
G1 X67.5 Y0 Z0.4 F300 ;Move to start position
G1 X167.5 E30 F400 ;Draw the first line
G1 Z0.6 F120.0 ;Move to side a little
G1 X162.5 F3000
G92 E0 ;Reset Extruder
G92 E0
G92 E0
G1 F2700 E-0.5
;LAYER_COUNT:137
;LAYER:0
M107
M204 S500
G0 F7200 X93.712 Y90.734 Z0.2
;TYPE:SKIRT
G1 F2700 E0
G1 F3600 X95.107 Y89.871 E0.07161
G1 X95.27 Y89.804 E0.0793
G1 X96.669 Y89.495 E0.14185
G1 X138.04 Y89.495 E1.94785
G1 X139.455 Y89.778 E2.01085
G1 X140.625 Y90.424 E2.06919
G1 X141.57 Y91.212 E2.1229
G1 X142.433 Y92.607 E2.19451
G1 X142.5 Y92.77 E2.2022
G1 X142.809 Y94.169 E2.26475
G1 X142.809 Y135.54 E4.07075
G1 X142.526 Y136.955 E4.13375
G1 X141.88 Y138.125 E4.19209
G1 X141.092 Y139.07 E4.2458
G1 X139.697 Y139.933 E4.31741
G1 X139.534 Y140 E4.32511
G1 X138.135 Y140.309 E4.38765
G1 X96.764 Y140.309 E6.19366
G1 X95.349 Y140.026 E6.25665
G1 X94.179 Y139.38 E6.31499
G1 X93.234 Y138.592 E6.36871
G1 X92.371 Y137.197 E6.44031
G1 X92.304 Y137.034 E6.44801
G1 X91.995 Y135.635 E6.51055
G1 X91.995 Y94.264 E8.31656
G1 X92.278 Y92.849 E8.37955
G1 X92.924 Y91.679 E8.4379
G1 X93.712 Y90.734 E8.49161
G0 F7200 X94.061 Y91.135
G1 F3600 X95.383 Y90.317 E8.55947
G1 X96.728 Y90.02 E8.6196
G1 X137.987 Y90.02 E10.42072
G1 X139.274 Y90.277 E10.47801
G1 X140.327 Y90.859 E10.53053
G1 X141.169 Y91.561 E10.57839
G1 X141.987 Y92.883 E10.64625
G1 X142.284 Y94.228 E10.70638
G1 X142.284 Y135.487 E12.5075
G1 X142.027 Y136.774 E12.56479
G1 X141.445 Y137.827 E12.61731
G1 X140.743 Y138.669 E12.66517
G1 X139.421 Y139.487 E12.73303
G1 X138.076 Y139.784 E12.79316
G1 X96.817 Y139.784 E14.59428
G1 X95.53 Y139.527 E14.65157
G1 X94.477 Y138.945 E14.70409
G1 X93.635 Y138.243 E14.75195
G1 X92.817 Y136.921 E14.81981
G1 X92.52 Y135.576 E14.87994
G1 X92.52 Y94.317 E16.68106
G1 X92.777 Y93.03 E16.73835
G1 X93.359 Y91.977 E16.79087
G1 X94.061 Y91.135 E16.83873
G0 F7200 X94.408 Y91.538
G1 F3600 X95.584 Y90.811 E16.89908
G1 X96.787 Y90.545 E16.95287
G1 X137.934 Y90.545 E18.7491
G1 X139.09 Y90.776 E18.80056
G1 X140.033 Y91.297 E18.84759
G1 X140.766 Y91.908 E18.88925
G1 X141.493 Y93.084 E18.9496
G1 X141.759 Y94.287 E19.00338
G1 X141.759 Y135.434 E20.79961
G1 X141.528 Y136.59 E20.85107
G1 X141.007 Y137.533 E20.8981
G1 X140.396 Y138.266 E20.93976
G1 X139.22 Y138.993 E21.00012
G1 X138.017 Y139.259 E21.0539
G1 X96.87 Y139.259 E22.85013
G1 X95.714 Y139.028 E22.90159
G1 X94.771 Y138.507 E22.94862
G1 X94.038 Y137.896 E22.99028
G1 X93.311 Y136.72 E23.05063
G1 X93.045 Y135.517 E23.10442
G1 X93.045 Y94.37 E24.90065
G1 X93.276 Y93.214 E24.95211
G1 X93.797 Y92.271 E24.99914
G1 X94.408 Y91.538 E25.04079
G0 F7200 X94.757 Y91.939
G1 F3600 X95.782 Y91.305 E25.09341
G1 X96.846 Y91.07 E25.14098
G1 X137.881 Y91.07 E26.93231
G1 X138.906 Y91.275 E26.97795
G1 X139.739 Y91.735 E27.01949
G1 X140.365 Y92.257 E27.05507
G1 X140.999 Y93.282 E27.10768
G1 X141.234 Y94.346 E27.15525
G1 X141.234 Y135.381 E28.94659
G1 X141.029 Y136.406 E28.99222
G1 X140.569 Y137.239 E29.03376
G1 X140.047 Y137.865 E29.06934
G1 X139.022 Y138.499 E29.12195
G1 X137.958 Y138.734 E29.16952
G1 X96.923 Y138.734 E30.96086
G1 X95.898 Y138.529 E31.00649
G1 X95.065 Y138.069 E31.04803
G1 X94.439 Y137.547 E31.08361
G1 X93.805 Y136.522 E31.13622
G1 X93.57 Y135.458 E31.18379
G1 X93.57 Y94.423 E32.97513
G1 X93.775 Y93.398 E33.02076
G1 X94.235 Y92.565 E33.0623
G1 X94.757 Y91.939 E33.09788
G0 F7200 X95.106 Y92.34
G1 F3600 X95.98 Y91.799 E33.14275
G1 X96.905 Y91.595 E33.1841
G1 X137.828 Y91.595 E34.97055
G1 X138.722 Y91.774 E35.01036
G1 X139.445 Y92.173 E35.0464
G1 X139.964 Y92.606 E35.07591
G1 X140.505 Y93.48 E35.12078
G1 X140.709 Y94.405 E35.16213
G1 X140.709 Y135.328 E36.94858
G1 X140.53 Y136.222 E36.98838
G1 X140.131 Y136.945 E37.02443
G1 X139.698 Y137.464 E37.05394
G1 X138.824 Y138.005 E37.09881
G1 X137.899 Y138.209 E37.14016
G1 X96.976 Y138.209 E38.92661
G1 X96.082 Y138.03 E38.96641
G1 X95.359 Y137.631 E39.00246
G1 X94.84 Y137.198 E39.03197
G1 X94.299 Y136.324 E39.07684
G1 X94.095 Y135.399 E39.11819
G1 X94.095 Y94.476 E40.90464
G1 X94.274 Y93.582 E40.94444
G1 X94.673 Y92.859 E40.98049
G1 X95.106 Y92.34 E41.00999
G0 F7200 X95.455 Y92.742
G1 F3600 X96.181 Y92.293 E41.04726
G1 X96.964 Y92.12 E41.08226
G1 X137.775 Y92.12 E42.86382
G1 X138.54 Y92.273 E42.89788
G1 X139.146 Y92.607 E42.92809
G1 X139.562 Y92.955 E42.95176
G1 X140.011 Y93.681 E42.98903
G1 X140.184 Y94.464 E43.02403
G1 X140.184 Y135.275 E44.80559
G1 X140.031 Y136.04 E44.83965
G1 X139.697 Y136.646 E44.86985
G1 X139.349 Y137.062 E44.89353
G1 X138.623 Y137.511 E44.9308
G1 X137.84 Y137.684 E44.9658
G1 X97.029 Y137.684 E46.74736
G1 X96.264 Y137.531 E46.78142
G1 X95.658 Y137.197 E46.81162
G1 X95.242 Y136.849 E46.8353
G1 X94.793 Y136.123 E46.87256
G1 X94.62 Y135.34 E46.90757
G1 X94.62 Y94.529 E48.68913
G1 X94.773 Y93.764 E48.72319
G1 X95.107 Y93.158 E48.75339
G1 X95.455 Y92.742 E48.77707
G0 F7200 X95.804 Y93.143
G1 F3600 X96.379 Y92.787 E48.80659
G1 X97.023 Y92.645 E48.83538
G1 X137.722 Y92.645 E50.61205
G1 X138.357 Y92.772 E50.64032
G1 X138.892 Y93.067 E50.66699
G1 X139.161 Y93.304 E50.68264
G1 X139.517 Y93.879 E50.71216
G1 X139.659 Y94.523 E50.74095
G1 X139.659 Y135.222 E52.51762
G1 X139.532 Y135.857 E52.54589
G1 X139.237 Y136.392 E52.57256
G1 X139 Y136.661 E52.58821
G1 X138.425 Y137.017 E52.61774
G1 X137.781 Y137.159 E52.64652
G1 X97.082 Y137.159 E54.42319
G1 X96.447 Y137.032 E54.45146
G1 X95.912 Y136.737 E54.47813
G1 X95.643 Y136.5 E54.49378
G1 X95.287 Y135.925 E54.52331
G1 X95.145 Y135.281 E54.5521
G1 X95.145 Y94.582 E56.32877
G1 X95.272 Y93.947 E56.35704
G1 X95.567 Y93.412 E56.38371
G1 X95.804 Y93.143 E56.39936
G0 F7200 X96.179 Y93.511
G1 F3600 X96.578 Y93.281 E56.41946
G1 X97.082 Y93.17 E56.44199
G1 X137.722 Y93.17 E58.21609
G1 X138.103 Y93.232 E58.23294
G1 X138.638 Y93.527 E58.25961
G1 X138.793 Y93.679 E58.26908
G1 X139.023 Y94.078 E58.28919
G1 X139.134 Y94.582 E58.31172
G1 X139.134 Y135.222 E60.08581
G1 X139.072 Y135.603 E60.10266
G1 X138.777 Y136.138 E60.12933
G1 X138.625 Y136.293 E60.13881
G1 X138.226 Y136.523 E60.15891
G1 X137.722 Y136.634 E60.18144
G1 X97.082 Y136.634 E61.95554
G1 X96.701 Y136.572 E61.97239
G1 X96.166 Y136.277 E61.99906
G1 X96.011 Y136.125 E62.00854
G1 X95.781 Y135.726 E62.02864
G1 X95.67 Y135.222 E62.05117
G1 X95.67 Y94.582 E63.82527
G1 X95.732 Y94.201 E63.84212
G1 X96.027 Y93.666 E63.86879
G1 X96.179 Y93.511 E63.87826
G1 F2700 E63.37826
G0 F7200 X96.869 Y94.289
G1 F2700 E63.87826
G1 F3600 X97.082 Y94.22 E63.88804
G1 X137.722 Y94.22 E65.66213
G1 X137.886 Y94.259 E65.66949
G1 X138.015 Y94.369 E65.67689
G1 X138.084 Y94.582 E65.68667
G1 X138.084 Y135.222 E67.46076
G1 X138.045 Y135.386 E67.46812
G1 X137.935 Y135.515 E67.47552
G1 X137.722 Y135.584 E67.4853
G1 X97.082 Y135.584 E69.25939
G1 X96.918 Y135.545 E69.26675
G1 X96.789 Y135.435 E69.27415
G1 X96.72 Y135.222 E69.28393
G1 X96.72 Y94.582 E71.05802
G1 X96.759 Y94.418 E71.06538
G1 X96.869 Y94.289 E71.07278
G0 F7200 X96.707 Y93.79
G1 F3600 X97.082 Y93.695 E71.08967
G1 X137.722 Y93.695 E72.86376
G1 X138.007 Y93.748 E72.87642
G1 X138.356 Y93.97 E72.89447
G1 X138.514 Y94.207 E72.90691
G1 X138.609 Y94.582 E72.9238
G1 X138.609 Y135.222 E74.69789
G1 X138.556 Y135.507 E74.71055
G1 X138.334 Y135.856 E74.7286
G1 X138.097 Y136.014 E74.74104
G1 X137.722 Y136.109 E74.75792
G1 X97.082 Y136.109 E76.53202
G1 X96.797 Y136.056 E76.54467
G1 X96.448 Y135.834 E76.56273
G1 X96.29 Y135.597 E76.57517
G1 X96.195 Y135.222 E76.59205
G1 X96.195 Y94.582 E78.36615
G1 X96.248 Y94.297 E78.3788
G1 X96.47 Y93.948 E78.39686
G1 X96.707 Y93.79 E78.40929
G1 F2700 E77.90929
;MESH:angle-test-1.stl
G0 F7200 X98.045 Y95.545
G0 X97.962 Y134.342
G0 X97.867 Y134.433
;TYPE:WALL-INNER
G1 F2700 E78.40929
G1 F3600 X136.933 Y134.433 E80.11468
G1 X136.933 Y95.367 E81.82006
G1 X97.867 Y95.367 E83.52545
G1 X97.867 Y134.433 E85.23083
G0 F7200 X97.342 Y134.958
;TYPE:WALL-OUTER
G1 F3600 X137.458 Y134.958 E86.98205
G1 X137.458 Y94.842 E88.73327
G1 X97.342 Y94.842 E90.48449
G1 X97.342 Y134.958 E92.23571
G0 F7200 X97.542 Y134.958
G0 X97.962 Y134.342
G0 X98.306 Y133.99
;TYPE:SKIN
G1 F3600 X98.306 Y95.806 E93.9026
G1 X136.49 Y95.806 E95.56948
G1 X136.49 Y133.99 E97.23636
G1 X98.306 Y133.99 E98.90324
G0 F7200 X98.832 Y133.728
G1 F3600 X98.568 Y133.464 E98.91954
G0 F7200 X98.568 Y132.721
G1 F3600 X99.575 Y133.728 E98.98171
G0 F7200 X100.317 Y133.728
G1 F3600 X98.568 Y131.979 E99.08968
G0 F7200 X98.568 Y131.236
G1 F3600 X101.06 Y133.728 E99.24353
G0 F7200 X101.802 Y133.728
G1 F3600 X98.568 Y130.494 E99.44318
G0 F7200 X98.568 Y129.751
G1 F3600 X102.545 Y133.728 E99.68871
G0 F7200 X103.287 Y133.728
G1 F3600 X98.568 Y129.009 E99.98004
G0 F7200 X98.568 Y128.266
G1 F3600 X104.03 Y133.728 E100.31724
G0 F7200 X104.772 Y133.728
G1 F3600 X98.568 Y127.524 E100.70025
G0 F7200 X98.568 Y126.781
G1 F3600 X105.514 Y133.728 E101.1291
G0 F7200 X106.257 Y133.728
G1 F3600 X98.568 Y126.039 E101.60379
G0 F7200 X98.568 Y125.296
G1 F3600 X106.999 Y133.728 E102.12432
G0 F7200 X107.742 Y133.728
G1 F3600 X98.568 Y124.554 E102.69068
G0 F7200 X98.568 Y123.812
G1 F3600 X108.484 Y133.728 E103.30286
G0 F7200 X109.227 Y133.728
G1 F3600 X98.568 Y123.069 E103.9609
G0 F7200 X98.568 Y122.327
G1 F3600 X109.969 Y133.728 E104.66475
G0 F7200 X110.712 Y133.728
G1 F3600 X98.568 Y121.584 E105.41447
G0 F7200 X98.568 Y120.842
G1 F3600 X111.454 Y133.728 E106.21
G0 F7200 X112.197 Y133.728
G1 F3600 X98.568 Y120.099 E107.0514
G0 F7200 X98.568 Y119.357
G1 F3600 X112.939 Y133.728 E107.93861
G0 F7200 X113.682 Y133.728
G1 F3600 X98.568 Y118.614 E108.87169
G0 F7200 X98.568 Y117.872
G1 F3600 X114.424 Y133.728 E109.85057
G0 F7200 X115.166 Y133.728
G1 F3600 X98.568 Y117.129 E110.8753
G0 F7200 X98.568 Y116.387
G1 F3600 X115.909 Y133.728 E111.94586
G0 F7200 X116.651 Y133.728
G1 F3600 X98.568 Y115.644 E113.06226
G0 F7200 X98.568 Y114.902
G1 F3600 X117.394 Y133.728 E114.22451
G0 F7200 X118.136 Y133.728
G1 F3600 X98.568 Y114.16 E115.43255
G0 F7200 X98.568 Y113.417
G1 F3600 X118.879 Y133.728 E116.68647
G0 F7200 X119.621 Y133.728
G1 F3600 X98.568 Y112.675 E117.9862
G0 F7200 X98.568 Y111.932
G1 F3600 X120.364 Y133.728 E119.3318
G0 F7200 X121.106 Y133.728
G1 F3600 X98.568 Y111.19 E120.7232
G0 F7200 X98.568 Y110.447
G1 F3600 X121.849 Y133.728 E122.16048
G0 F7200 X122.591 Y133.728
G1 F3600 X98.568 Y109.705 E123.64356
G0 F7200 X98.568 Y108.962
G1 F3600 X123.334 Y133.728 E125.17252
G0 F7200 X124.076 Y133.728
G1 F3600 X98.568 Y108.22 E126.74728
G0 F7200 X98.568 Y107.477
G1 F3600 X124.818 Y133.728 E128.36788
G0 F7200 X125.561 Y133.728
G1 F3600 X98.568 Y106.735 E130.03432
G0 F7200 X98.568 Y105.992
G1 F3600 X126.303 Y133.728 E131.7466
G0 F7200 X127.046 Y133.728
G1 F3600 X98.568 Y105.25 E133.50471
G0 F7200 X98.568 Y104.508
G1 F3600 X127.788 Y133.728 E135.30864
G0 F7200 X128.531 Y133.728
G1 F3600 X98.568 Y103.765 E137.15843
G0 F7200 X98.568 Y103.023
G1 F3600 X129.273 Y133.728 E139.05404
G0 F7200 X130.016 Y133.728
G1 F3600 X98.568 Y102.28 E140.99551
G0 F7200 X98.568 Y101.538
G1 F3600 X130.758 Y133.728 E142.98279
G0 F7200 X131.501 Y133.728
G1 F3600 X98.568 Y100.795 E145.01594
G0 F7200 X98.568 Y100.053
G1 F3600 X132.243 Y133.728 E147.0949
G0 F7200 X132.986 Y133.728
G1 F3600 X98.568 Y99.31 E149.21973
G0 F7200 X98.568 Y98.568
G1 F3600 X133.728 Y133.728 E151.39037
G0 F7200 X134.47 Y133.728
G1 F3600 X98.568 Y97.825 E153.60684
G0 F7200 X98.568 Y97.083
G1 F3600 X135.213 Y133.728 E155.86916
G0 F7200 X135.955 Y133.728
G1 F3600 X98.568 Y96.34 E158.17731
G0 F7200 X99.038 Y96.068
G1 F3600 X136.228 Y133.259 E160.4733
G0 F7200 X136.228 Y132.516
G1 F3600 X99.781 Y96.068 E162.72342
G0 F7200 X100.523 Y96.068
G1 F3600 X136.228 Y131.774 E164.92774
G0 F7200 X136.228 Y131.031
G1 F3600 X101.265 Y96.068 E167.08621
G0 F7200 X102.008 Y96.068
G1 F3600 X136.228 Y130.289 E169.19885
G0 F7200 X136.228 Y129.546
G1 F3600 X102.75 Y96.068 E171.26565
G0 F7200 X103.493 Y96.068
G1 F3600 X136.228 Y128.804 E173.2866
G0 F7200 X136.228 Y128.061
G1 F3600 X104.235 Y96.068 E175.26172
G0 F7200 X104.978 Y96.068
G1 F3600 X136.228 Y127.319 E177.191
G0 F7200 X136.228 Y126.576
G1 F3600 X105.72 Y96.068 E179.07444
G0 F7200 X106.463 Y96.068
G1 F3600 X136.228 Y125.834 E180.91205
G0 F7200 X136.228 Y125.091
G1 F3600 X107.205 Y96.068 E182.70381
G0 F7200 X107.948 Y96.068
G1 F3600 X136.228 Y124.349 E184.44973
G0 F7200 X136.228 Y123.607
G1 F3600 X108.69 Y96.068 E186.14985
G0 F7200 X109.433 Y96.068
G1 F3600 X136.228 Y122.864 E187.8041
G0 F7200 X136.228 Y122.122
G1 F3600 X110.175 Y96.068 E189.41253
G0 F7200 X110.917 Y96.068
G1 F3600 X136.228 Y121.379 E190.97513
G0 F7200 X136.228 Y120.637
G1 F3600 X111.66 Y96.068 E192.49189
G0 F7200 X112.402 Y96.068
G1 F3600 X136.228 Y119.894 E193.96282
G0 F7200 X136.228 Y119.152
G1 F3600 X113.145 Y96.068 E195.3879
G0 F7200 X113.887 Y96.068
G1 F3600 X136.228 Y118.409 E196.76714
G0 F7200 X136.228 Y117.667
G1 F3600 X114.63 Y96.068 E198.10055
G0 F7200 X115.372 Y96.068
G1 F3600 X136.228 Y116.924 E199.38811
G0 F7200 X136.228 Y116.182
G1 F3600 X116.115 Y96.068 E200.62984
G0 F7200 X116.857 Y96.068
G1 F3600 X136.228 Y115.439 E201.82573
G0 F7200 X136.228 Y114.697
G1 F3600 X117.6 Y96.068 E202.97577
G0 F7200 X118.342 Y96.068
G1 F3600 X136.228 Y113.955 E204.08001
G0 F7200 X136.228 Y113.212
G1 F3600 X119.085 Y96.068 E205.13839
G0 F7200 X119.827 Y96.068
G1 F3600 X136.228 Y112.47 E206.15095
G0 F7200 X136.228 Y111.727
G1 F3600 X120.569 Y96.068 E207.11767
G0 F7200 X121.312 Y96.068
G1 F3600 X136.228 Y110.985 E208.03856
G0 F7200 X136.228 Y110.242
M104 S200
G1 F3600 X122.054 Y96.068 E208.9136
G0 F7200 X122.797 Y96.068
G1 F3600 X136.228 Y109.5 E209.74281
G0 F7200 X136.228 Y108.757
G1 F3600 X123.539 Y96.068 E210.52618
G0 F7200 X124.282 Y96.068
G1 F3600 X136.228 Y108.015 E211.26371
G0 F7200 X136.228 Y107.272
G1 F3600 X125.024 Y96.068 E211.95539
G0 F7200 X125.767 Y96.068
G1 F3600 X136.228 Y106.53 E212.60125
G0 F7200 X136.228 Y105.787
G1 F3600 X126.509 Y96.068 E213.20126
G0 F7200 X127.252 Y96.068
G1 F3600 X136.228 Y105.045 E213.75543
G0 F7200 X136.228 Y104.302
G1 F3600 X127.994 Y96.068 E214.26376
G0 F7200 X128.737 Y96.068
G1 F3600 X136.228 Y103.56 E214.72626
G0 F7200 X136.228 Y102.818
G1 F3600 X129.479 Y96.068 E215.14295
G0 F7200 X130.221 Y96.068
G1 F3600 X136.228 Y102.075 E215.51379
G0 F7200 X136.228 Y101.333
G1 F3600 X130.964 Y96.068 E215.8388
G0 F7200 X131.706 Y96.068
G1 F3600 X136.228 Y100.59 E216.11797
G0 F7200 X136.228 Y99.848
G1 F3600 X132.449 Y96.068 E216.35131
G0 F7200 X133.191 Y96.068
G1 F3600 X136.228 Y99.105 E216.5388
G0 F7200 X136.228 Y98.363
G1 F3600 X133.934 Y96.068 E216.68045
G0 F7200 X134.676 Y96.068
G1 F3600 X136.228 Y97.62 E216.77626
G0 F7200 X136.228 Y96.878
G1 F3600 X135.419 Y96.068 E216.82624
G1 X135.345 Y95.994
G1 F2700 E216.32624
;MESH:NONMESH
G0 F600 X135.345 Y95.994 Z0.4
G0 F7200 X135.345 Y95.445
G0 X98.017 Y95.517
G0 X97.962 Y134.342
G0 X97.71 Y134.59
;TIME_ELAPSED:107.866239
;LAYER:1
M106 S255
M204 S950
;TYPE:WALL-INNER
;MESH:angle-test-1.stl
G1 F2700 E216.82624
G1 F5040 X137.09 Y134.59 E218.20151
G1 X137.09 Y95.21 E219.57679
G1 X97.71 Y95.21 E220.95206
G1 X97.71 Y134.59 E222.32733
M204 S1450
G0 F8880 X97.29 Y135.01
M204 S950
;TYPE:WALL-OUTER
G1 F5040 X137.51 Y135.01 E223.73194
G1 X137.51 Y94.79 E225.13655
G1 X97.29 Y94.79 E226.54116
G1 X97.29 Y135.01 E227.94577
M204 S1450
G0 F8880 X97.49 Y135.01
G0 X98.046 Y134.254
;TYPE:SKIN
G1 F5040 X98.046 Y95.546 E229.29757
G1 X136.754 Y95.546 E230.64938
G1 X136.754 Y134.254 E232.00118
G1 X98.046 Y134.254 E233.35299
G1 F2700 E232.85299
G0 F8880 X98.256 Y95.972
G1 F2700 E233.35299
G1 F5040 X98.472 Y95.756 E233.36366
G0 F8880 X99.066 Y95.756
