;FLAVOR:Marlin
;TIME:3304
;Filament used: 6.90586m
;Layer height: 0.2
;MINX:52.541
;MINY:43.228
;MINZ:0.2
;MAXX:182.459
;MAXY:202.585
;MAXZ:9.6
;TARGET_MACHINE.NAME:ELEGOO NEPTUNE 4 Pro
;Generated with Cura_SteamEngine 5.7.1
M82 ;absolute extrusion mode
;ELEGOO NEPTUNE 4 / 4 PRO
M220 S100 ;Set the feed speed to 100%
M221 S100 ;Set the flow rate to 100%
M104 S140 ;Start heating extruder
M190 S60 ;Wait for the bed to reach print temp
G90
G28 ;home
G1 Z10 F300
G1 X67.5 Y0 F6000
G1 Z0 F300
M109 S210 ;Wait for extruder to reach print temp
G92 E0 ;Reset Extruder
G1 X67.5 Y0 Z0.4 F300 ;Move to start position
G1 X167.5 E30 F400 ;Draw the first line
G1 Z0.6 F120.0 ;Move to side a little
G1 X162.5 F3000
G92 E0 ;Reset Extruder
G92 E0
G92 E0
G1 F2700 E-0.5
;LAYER_COUNT:48
;LAYER:0
M107
M204 S500
G0 F7200 X54.258 Y47.96 Z0.2
;TYPE:SKIRT
G1 F2700 E0
G1 F3600 X55.653 Y47.097 E0.07161
G1 X55.816 Y47.03 E0.0793
G1 X57.215 Y46.721 E0.14185
G1 X61.887 Y46.721 E0.3458
G1 X61.974 Y46.439 E0.35868
G1 X62.539 Y45.416 E0.4097
G1 X63.33 Y44.467 E0.46363
G1 X64.725 Y43.604 E0.53524
G1 X64.888 Y43.537 E0.54293
G1 X66.287 Y43.228 E0.60547
G1 X82.439 Y43.228 E1.31057
G1 X83.612 Y43.463 E1.36279
G1 X83.907 Y43.581 E1.37666
G1 X84.112 Y43.499 E1.3863
G1 X85.337 Y43.228 E1.44107
G1 X101.489 Y43.228 E2.14617
G1 X102.662 Y43.463 E2.19839
G1 X102.957 Y43.581 E2.21226
G1 X103.162 Y43.499 E2.2219
G1 X104.387 Y43.228 E2.27667
G1 X120.539 Y43.228 E2.98177
G1 X121.712 Y43.463 E3.03399
G1 X122.007 Y43.581 E3.04786
G1 X122.212 Y43.499 E3.0575
G1 X123.437 Y43.228 E3.11227
G1 X139.589 Y43.228 E3.81737
G1 X140.762 Y43.463 E3.86959
G1 X141.057 Y43.581 E3.88346
G1 X141.262 Y43.499 E3.8931
G1 X142.487 Y43.228 E3.94787
G1 X158.639 Y43.228 E4.65297
G1 X159.812 Y43.463 E4.70519
G1 X160.107 Y43.581 E4.71906
G1 X160.312 Y43.499 E4.7287
G1 X161.537 Y43.228 E4.78347
G1 X177.689 Y43.228 E5.48857
G1 X179.104 Y43.511 E5.55156
G1 X180.274 Y44.157 E5.6099
G1 X181.219 Y44.945 E5.66362
G1 X182.082 Y46.34 E5.73522
G1 X182.149 Y46.503 E5.74292
G1 X182.458 Y47.902 E5.80546
G1 X182.459 Y51.364 E5.95659
G1 X182.176 Y52.779 E6.01959
G1 X181.842 Y53.383 E6.04972
G1 X182.149 Y53.936 E6.07733
G1 X182.458 Y55.332 E6.13974
G1 X182.458 Y58.793 E6.29083
G1 X182.175 Y60.208 E6.35382
G1 X181.529 Y61.378 E6.41217
G1 X180.741 Y62.323 E6.46588
G1 X179.346 Y63.186 E6.53749
G1 X179.183 Y63.253 E6.54518
G1 X177.784 Y63.562 E6.60772
G1 X161.632 Y63.562 E7.31282
G1 X160.459 Y63.327 E7.36505
G1 X160.164 Y63.209 E7.37892
G1 X159.959 Y63.291 E7.38855
G1 X158.734 Y63.562 E7.44332
G1 X142.582 Y63.562 E8.14842
G1 X141.409 Y63.327 E8.20065
G1 X141.114 Y63.209 E8.21451
G1 X140.909 Y63.291 E8.22415
G1 X139.684 Y63.562 E8.27892
G1 X123.532 Y63.562 E8.98402
G1 X122.359 Y63.327 E9.03624
G1 X122.064 Y63.209 E9.05011
G1 X121.859 Y63.291 E9.05975
G1 X120.634 Y63.562 E9.11452
G1 X104.482 Y63.562 E9.81962
G1 X103.309 Y63.327 E9.87184
G1 X103.014 Y63.209 E9.88571
G1 X102.809 Y63.291 E9.89535
G1 X101.584 Y63.562 E9.95012
G1 X85.432 Y63.562 E10.65522
G1 X84.259 Y63.327 E10.70744
G1 X83.964 Y63.209 E10.72131
G1 X83.759 Y63.291 E10.73095
G1 X82.534 Y63.562 E10.78572
G1 X66.382 Y63.562 E11.49082
G1 X64.967 Y63.279 E11.55381
G1 X63.797 Y62.633 E11.61215
G1 X62.852 Y61.845 E11.66587
G1 X61.989 Y60.45 E11.73748
G1 X61.874 Y60.07 E11.75481
G1 X57.311 Y60.07 E11.954
G1 X55.896 Y59.787 E12.01699
G1 X54.726 Y59.141 E12.07534
G1 X53.781 Y58.353 E12.12905
G1 X52.918 Y56.958 E12.20066
G1 X52.851 Y56.795 E12.20835
G1 X52.542 Y55.396 E12.2709
G1 X52.541 Y51.49 E12.44141
G1 X52.824 Y50.075 E12.5044
G1 X53.47 Y48.905 E12.56275
G1 X54.258 Y47.96 E12.61646
G0 F7200 X54.607 Y48.361
G1 F3600 X53.905 Y49.203 E12.66431
G1 X53.323 Y50.256 E12.71684
G1 X53.066 Y51.543 E12.77413
G1 X53.067 Y55.337 E12.93975
G1 X53.364 Y56.682 E12.99988
G1 X54.182 Y58.004 E13.06774
G1 X55.024 Y58.706 E13.1156
G1 X56.077 Y59.288 E13.16812
G1 X57.364 Y59.545 E13.22541
G1 X62.296 Y59.545 E13.44071
G1 X62.435 Y60.174 E13.46884
G1 X63.253 Y61.496 E13.5367
G1 X64.095 Y62.198 E13.58456
G1 X65.148 Y62.78 E13.63708
G1 X66.435 Y63.037 E13.69437
G1 X82.475 Y63.037 E14.39458
G1 X83.646 Y62.778 E14.44693
G1 X83.96 Y62.632 E14.46205
G1 X84.362 Y62.812 E14.48128
G1 X85.485 Y63.037 E14.53127
G1 X101.525 Y63.037 E15.23148
G1 X102.696 Y62.778 E15.28384
G1 X103.01 Y62.632 E15.29895
G1 X103.412 Y62.812 E15.31818
G1 X104.535 Y63.037 E15.36818
G1 X120.575 Y63.037 E16.06839
G1 X121.746 Y62.778 E16.12074
G1 X122.06 Y62.632 E16.13586
G1 X122.462 Y62.812 E16.15509
G1 X123.585 Y63.037 E16.20508
G1 X139.625 Y63.037 E16.90529
G1 X140.796 Y62.778 E16.95765
G1 X141.11 Y62.632 E16.97276
G1 X141.512 Y62.812 E16.99199
G1 X142.635 Y63.037 E17.04199
G1 X158.675 Y63.037 E17.7422
G1 X159.846 Y62.778 E17.79455
G1 X160.16 Y62.632 E17.80967
G1 X160.562 Y62.812 E17.8289
G1 X161.685 Y63.037 E17.8789
G1 X177.725 Y63.037 E18.5791
G1 X179.07 Y62.74 E18.63923
G1 X180.392 Y61.922 E18.7071
G1 X181.094 Y61.08 E18.75495
G1 X181.676 Y60.027 E18.80748
G1 X181.933 Y58.74 E18.86477
G1 X181.933 Y55.391 E19.01096
G1 X181.636 Y54.049 E19.07097
G1 X181.234 Y53.399 E19.10433
G1 X181.677 Y52.598 E19.14429
G1 X181.934 Y51.311 E19.20158
G1 X181.933 Y47.961 E19.34782
G1 X181.636 Y46.616 E19.40795
G1 X180.818 Y45.294 E19.47581
G1 X179.976 Y44.592 E19.52367
G1 X178.923 Y44.01 E19.57619
G1 X177.636 Y43.753 E19.63348
G1 X161.596 Y43.753 E20.33369
G1 X160.425 Y44.012 E20.38605
G1 X160.111 Y44.158 E20.40116
G1 X159.709 Y43.978 E20.42039
G1 X158.586 Y43.753 E20.47039
G1 X142.546 Y43.753 E21.1706
G1 X141.375 Y44.012 E21.22295
G1 X141.061 Y44.158 E21.23807
G1 X140.659 Y43.978 E21.25729
G1 X139.536 Y43.753 E21.30729
G1 X123.496 Y43.753 E22.0075
G1 X122.325 Y44.012 E22.05986
G1 X122.011 Y44.158 E22.07497
G1 X121.609 Y43.978 E22.0942
G1 X120.486 Y43.753 E22.1442
G1 X104.446 Y43.753 E22.84441
G1 X103.275 Y44.012 E22.89676
G1 X102.961 Y44.158 E22.91188
G1 X102.559 Y43.978 E22.93111
G1 X101.436 Y43.753 E22.9811
G1 X85.396 Y43.753 E23.68131
G1 X84.225 Y44.012 E23.73367
G1 X83.911 Y44.158 E23.74878
G1 X83.509 Y43.978 E23.76801
G1 X82.386 Y43.753 E23.81801
G1 X66.346 Y43.753 E24.51822
G1 X65.001 Y44.05 E24.57835
G1 X63.679 Y44.868 E24.64621
G1 X62.977 Y45.71 E24.69407
G1 X62.434 Y46.693 E24.74309
G1 X62.299 Y47.246 E24.76794
G1 X57.274 Y47.246 E24.9873
G1 X55.929 Y47.543 E25.04743
G1 X54.607 Y48.361 E25.11529
G0 F7200 X54.954 Y48.764
G1 F3600 X54.343 Y49.497 E25.15695
G1 X53.822 Y50.44 E25.20398
G1 X53.591 Y51.596 E25.25544
G1 X53.592 Y55.278 E25.41618
G1 X53.858 Y56.481 E25.46996
G1 X54.585 Y57.657 E25.53032
G1 X55.318 Y58.268 E25.57197
G1 X56.261 Y58.789 E25.619
G1 X57.417 Y59.02 E25.67047
G1 X62.718 Y59.02 E25.90188
G1 X62.929 Y59.973 E25.94448
G1 X63.656 Y61.149 E26.00484
G1 X64.389 Y61.76 E26.0465
G1 X65.332 Y62.281 E26.09353
G1 X66.488 Y62.512 E26.14499
G1 X82.416 Y62.512 E26.84031
G1 X83.533 Y62.265 E26.89025
G1 X83.951 Y62.042 E26.91093
G1 X84.465 Y62.297 E26.93598
G1 X85.538 Y62.512 E26.98375
G1 X101.466 Y62.512 E27.67907
G1 X102.583 Y62.265 E27.72901
G1 X103.001 Y62.042 E27.74969
G1 X103.515 Y62.297 E27.77474
G1 X104.588 Y62.512 E27.82251
G1 X120.516 Y62.512 E28.51783
G1 X121.633 Y62.265 E28.56777
G1 X122.051 Y62.042 E28.58845
G1 X122.565 Y62.297 E28.6135
G1 X123.638 Y62.512 E28.66127
G1 X139.566 Y62.512 E29.35659
G1 X140.683 Y62.265 E29.40653
G1 X141.101 Y62.042 E29.42721
G1 X141.615 Y62.297 E29.45226
G1 X142.688 Y62.512 E29.50003
G1 X158.616 Y62.512 E30.19535
G1 X159.733 Y62.265 E30.24529
G1 X160.151 Y62.042 E30.26597
G1 X160.665 Y62.297 E30.29102
G1 X161.738 Y62.512 E30.33879
G1 X177.666 Y62.512 E31.03411
G1 X178.869 Y62.246 E31.08789
G1 X180.045 Y61.519 E31.14825
G1 X180.656 Y60.786 E31.18991
G1 X181.177 Y59.843 E31.23694
G1 X181.408 Y58.687 E31.2884
G1 X181.408 Y55.45 E31.42971
G1 X181.142 Y54.247 E31.48349
G1 X180.626 Y53.413 E31.5263
G1 X181.178 Y52.414 E31.57613
G1 X181.409 Y51.258 E31.62759
G1 X181.408 Y48.02 E31.76894
G1 X181.142 Y46.817 E31.82272
G1 X180.415 Y45.641 E31.88308
G1 X179.682 Y45.03 E31.92474
G1 X178.739 Y44.509 E31.97177
G1 X177.583 Y44.278 E32.02323
G1 X161.655 Y44.278 E32.71855
G1 X160.538 Y44.525 E32.76849
G1 X160.12 Y44.748 E32.78917
G1 X159.606 Y44.493 E32.81422
G1 X158.533 Y44.278 E32.86199
G1 X142.605 Y44.278 E33.55731
G1 X141.488 Y44.525 E33.60725
G1 X141.07 Y44.748 E33.62793
G1 X140.556 Y44.493 E33.65298
G1 X139.483 Y44.278 E33.70075
G1 X123.555 Y44.278 E34.39607
G1 X122.438 Y44.525 E34.44601
G1 X122.02 Y44.748 E34.46669
G1 X121.506 Y44.493 E34.49174
G1 X120.433 Y44.278 E34.53951
G1 X104.505 Y44.278 E35.23483
G1 X103.388 Y44.525 E35.28477
G1 X102.97 Y44.748 E35.30545
G1 X102.456 Y44.493 E35.3305
G1 X101.383 Y44.278 E35.37827
G1 X85.455 Y44.278 E36.07359
G1 X84.338 Y44.525 E36.12353
G1 X83.92 Y44.748 E36.14421
G1 X83.406 Y44.493 E36.16926
G1 X82.333 Y44.278 E36.21703
G1 X66.405 Y44.278 E36.91235
G1 X65.202 Y44.544 E36.96613
G1 X64.026 Y45.271 E37.02649
G1 X63.415 Y46.004 E37.06815
G1 X62.894 Y46.947 E37.11518
G1 X62.729 Y47.771 E37.15186
G1 X57.333 Y47.771 E37.38742
G1 X56.13 Y48.037 E37.4412
G1 X54.954 Y48.764 E37.50156
G0 F7200 X55.303 Y49.165
G1 F3600 X56.328 Y48.531 E37.55417
G1 X57.392 Y48.296 E37.60174
G1 X63.188 Y48.296 E37.85475
G1 X63.198 Y48.106 E37.86306
G1 X63.393 Y47.131 E37.90647
G1 X63.853 Y46.298 E37.94801
G1 X64.375 Y45.672 E37.98359
G1 X65.4 Y45.038 E38.0362
G1 X66.464 Y44.803 E38.08377
G1 X82.28 Y44.803 E38.7742
G1 X83.303 Y45.008 E38.81974
G1 X83.936 Y45.356 E38.85128
G1 X84.451 Y45.038 E38.8777
G1 X85.514 Y44.803 E38.92522
G1 X101.33 Y44.803 E39.61565
G1 X102.353 Y45.008 E39.6612
G1 X102.986 Y45.356 E39.69273
G1 X103.501 Y45.038 E39.71916
G1 X104.564 Y44.803 E39.76668
G1 X120.38 Y44.803 E40.45711
G1 X121.403 Y45.008 E40.50266
G1 X122.036 Y45.356 E40.53419
G1 X122.551 Y45.038 E40.56061
G1 X123.614 Y44.803 E40.60814
G1 X139.43 Y44.803 E41.29857
G1 X140.453 Y45.008 E41.34411
G1 X141.086 Y45.356 E41.37565
G1 X141.601 Y45.038 E41.40207
G1 X142.664 Y44.803 E41.44959
G1 X158.48 Y44.803 E42.14002
G1 X159.503 Y45.008 E42.18557
G1 X160.136 Y45.356 E42.2171
G1 X160.651 Y45.038 E42.24353
G1 X161.714 Y44.803 E42.29105
G1 X177.53 Y44.803 E42.98148
G1 X178.555 Y45.008 E43.02711
G1 X179.388 Y45.468 E43.06865
G1 X180.014 Y45.99 E43.10423
G1 X180.648 Y47.015 E43.15685
G1 X180.883 Y48.079 E43.20441
G1 X180.884 Y51.205 E43.34088
G1 X180.679 Y52.23 E43.38651
G1 X180.241 Y53.023 E43.42606
G1 X179.944 Y53.392 E43.44673
G1 X180.104 Y53.566 E43.45705
G1 X180.648 Y54.445 E43.50218
G1 X180.883 Y55.509 E43.54974
G1 X180.883 Y58.634 E43.68616
G1 X180.678 Y59.659 E43.73179
G1 X180.218 Y60.492 E43.77333
G1 X179.696 Y61.118 E43.80892
G1 X178.671 Y61.752 E43.86153
G1 X177.607 Y61.987 E43.9091
G1 X161.791 Y61.987 E44.59953
G1 X160.768 Y61.782 E44.64507
G1 X160.135 Y61.434 E44.67661
G1 X159.62 Y61.752 E44.70303
G1 X158.557 Y61.987 E44.75055
G1 X142.741 Y61.987 E45.44098
G1 X141.718 Y61.782 E45.48653
G1 X141.085 Y61.434 E45.51806
G1 X140.57 Y61.752 E45.54449
G1 X139.507 Y61.987 E45.59201
G1 X123.691 Y61.987 E46.28244
G1 X122.668 Y61.782 E46.32799
G1 X122.035 Y61.434 E46.35952
G1 X121.52 Y61.752 E46.38594
G1 X120.457 Y61.987 E46.43347
G1 X104.641 Y61.987 E47.1239
G1 X103.618 Y61.782 E47.16944
G1 X102.985 Y61.434 E47.20098
G1 X102.47 Y61.752 E47.2274
G1 X101.407 Y61.987 E47.27492
G1 X85.591 Y61.987 E47.96535
G1 X84.568 Y61.782 E48.0109
G1 X83.935 Y61.434 E48.04243
G1 X83.42 Y61.752 E48.06886
G1 X82.357 Y61.987 E48.11638
G1 X66.541 Y61.987 E48.80681
G1 X65.516 Y61.782 E48.85244
G1 X64.683 Y61.322 E48.89398
G1 X64.057 Y60.8 E48.92956
G1 X63.423 Y59.775 E48.98218
G1 X63.2 Y58.765 E49.02733
G1 X63.188 Y58.495 E49.03913
G1 X57.47 Y58.495 E49.28874
G1 X56.445 Y58.29 E49.33437
G1 X55.612 Y57.83 E49.37591
G1 X54.986 Y57.308 E49.41149
G1 X54.352 Y56.283 E49.46411
G1 X54.117 Y55.219 E49.51167
G1 X54.116 Y51.649 E49.66752
G1 X54.321 Y50.624 E49.71315
G1 X54.781 Y49.791 E49.75469
G1 X55.303 Y49.165 E49.79027
G0 F7200 X55.652 Y49.566
G1 F3600 X56.526 Y49.025 E49.83514
G1 X57.451 Y48.821 E49.87649
G1 X63.713 Y48.821 E50.14985
G1 X63.713 Y48.209 E50.17657
G1 X63.892 Y47.315 E50.21637
G1 X64.291 Y46.592 E50.25242
G1 X64.724 Y46.073 E50.28193
G1 X65.598 Y45.532 E50.3268
G1 X66.523 Y45.328 E50.36815
G1 X82.227 Y45.328 E51.05369
G1 X83.121 Y45.507 E51.09349
G1 X83.951 Y45.964 E51.13485
G1 X84.651 Y45.532 E51.17076
G1 X85.573 Y45.328 E51.21198
G1 X101.277 Y45.328 E51.89752
G1 X102.171 Y45.507 E51.93732
G1 X103.001 Y45.964 E51.97869
G1 X103.701 Y45.532 E52.0146
G1 X104.623 Y45.328 E52.05582
G1 X120.327 Y45.328 E52.74136
G1 X121.221 Y45.507 E52.78116
G1 X122.051 Y45.964 E52.82252
G1 X122.751 Y45.532 E52.85843
G1 X123.673 Y45.328 E52.89965
G1 X139.377 Y45.328 E53.58519
G1 X140.271 Y45.507 E53.625
G1 X141.101 Y45.964 E53.66636
G1 X141.801 Y45.532 E53.70227
G1 X142.723 Y45.328 E53.74349
G1 X158.427 Y45.328 E54.42903
G1 X159.321 Y45.507 E54.46883
G1 X160.151 Y45.964 E54.51019
G1 X160.851 Y45.532 E54.5461
G1 X161.773 Y45.328 E54.58732
G1 X177.477 Y45.328 E55.27286
G1 X178.371 Y45.507 E55.31267
G1 X179.094 Y45.906 E55.34871
G1 X179.613 Y46.339 E55.37822
G1 X180.154 Y47.213 E55.42309
G1 X180.358 Y48.138 E55.46444
G1 X180.359 Y51.152 E55.59602
G1 X180.18 Y52.046 E55.63582
G1 X179.781 Y52.769 E55.67187
G1 X179.402 Y53.223 E55.69768
G1 X179.169 Y53.398 E55.7104
G1 X179.658 Y53.842 E55.73924
G1 X180.154 Y54.643 E55.78036
G1 X180.358 Y55.568 E55.82171
G1 X180.358 Y58.581 E55.95324
G1 X180.179 Y59.475 E55.99305
G1 X179.78 Y60.198 E56.02909
G1 X179.347 Y60.717 E56.0586
G1 X178.473 Y61.258 E56.10347
G1 X177.548 Y61.462 E56.14482
G1 X161.844 Y61.462 E56.83036
G1 X160.95 Y61.283 E56.87016
G1 X160.12 Y60.826 E56.91153
G1 X159.42 Y61.258 E56.94743
G1 X158.498 Y61.462 E56.98866
G1 X142.794 Y61.462 E57.6742
G1 X141.9 Y61.283 E57.714
G1 X141.07 Y60.826 E57.75536
G1 X140.37 Y61.258 E57.79127
G1 X139.448 Y61.462 E57.83249
G1 X123.744 Y61.462 E58.51803
G1 X122.85 Y61.283 E58.55783
G1 X122.02 Y60.826 E58.5992
G1 X121.32 Y61.258 E58.63511
G1 X120.398 Y61.462 E58.67633
G1 X104.694 Y61.462 E59.36187
G1 X103.8 Y61.283 E59.40167
G1 X102.97 Y60.826 E59.44303
G1 X102.27 Y61.258 E59.47894
G1 X101.348 Y61.462 E59.52016
G1 X85.644 Y61.462 E60.2057
G1 X84.75 Y61.283 E60.24551
G1 X83.92 Y60.826 E60.28687
G1 X83.22 Y61.258 E60.32278
G1 X82.298 Y61.462 E60.364
G1 X66.594 Y61.462 E61.04954
G1 X65.7 Y61.283 E61.08934
G1 X64.977 Y60.884 E61.12539
G1 X64.458 Y60.451 E61.1549
G1 X63.917 Y59.577 E61.19977
G1 X63.713 Y58.652 E61.24112
G1 X63.713 Y57.97 E61.27089
G1 X57.523 Y57.97 E61.54111
G1 X56.629 Y57.791 E61.58091
G1 X55.906 Y57.392 E61.61696
G1 X55.387 Y56.959 E61.64646
G1 X54.846 Y56.085 E61.69133
G1 X54.642 Y55.16 E61.73268
G1 X54.641 Y51.702 E61.88364
G1 X54.82 Y50.808 E61.92344
G1 X55.219 Y50.085 E61.95949
G1 X55.652 Y49.566 E61.989
G0 F7200 X56.001 Y49.968
G1 F3600 X56.727 Y49.519 E62.02626
G1 X57.51 Y49.346 E62.06127
G1 X64.238 Y49.346 E62.35497
G1 X64.238 Y48.262 E62.40229
G1 X64.391 Y47.497 E62.43635
G1 X64.725 Y46.891 E62.46655
G1 X65.073 Y46.475 E62.49023
G1 X65.799 Y46.026 E62.52749
G1 X66.582 Y45.853 E62.5625
G1 X82.174 Y45.853 E63.24315
G1 X82.939 Y46.006 E63.27721
G1 X83.598 Y46.369 E63.31005
G1 X83.941 Y46.684 E63.33038
G1 X84.196 Y46.43 E63.34609
G1 X84.849 Y46.026 E63.37961
G1 X85.632 Y45.853 E63.41462
G1 X101.224 Y45.853 E64.09527
G1 X101.989 Y46.006 E64.12933
G1 X102.648 Y46.369 E64.16217
G1 X102.991 Y46.684 E64.1825
G1 X103.246 Y46.43 E64.19821
G1 X103.899 Y46.026 E64.23173
G1 X104.682 Y45.853 E64.26674
G1 X120.274 Y45.853 E64.94739
G1 X121.039 Y46.006 E64.98145
G1 X121.698 Y46.369 E65.01429
G1 X122.041 Y46.684 E65.03462
G1 X122.296 Y46.43 E65.05033
G1 X122.949 Y46.026 E65.08385
G1 X123.732 Y45.853 E65.11886
G1 X139.324 Y45.853 E65.79951
G1 X140.089 Y46.006 E65.83357
G1 X140.748 Y46.369 E65.86641
G1 X141.091 Y46.684 E65.88674
G1 X141.346 Y46.43 E65.90245
G1 X141.999 Y46.026 E65.93597
G1 X142.782 Y45.853 E65.97098
G1 X158.374 Y45.853 E66.65163
G1 X159.139 Y46.006 E66.68569
G1 X159.798 Y46.369 E66.71853
G1 X160.141 Y46.684 E66.73886
G1 X160.396 Y46.43 E66.75457
G1 X161.049 Y46.026 E66.78809
G1 X161.832 Y45.853 E66.8231
