;FLAVOR:Marlin
;TIME:2370
;Filament used: 5.80693m
;Layer height: 0.2
;MINX:48.913
;MINY:78.481
;MINZ:0.2
;MAXX:186.087
;MAXY:151.519
;MAXZ:14
;TARGET_MACHINE.NAME:ELEGOO NEPTUNE 4 Pro
;Generated with Cura_SteamEngine 5.7.1
M82 ;absolute extrusion mode
;ELEGOO NEPTUNE 4 / 4 PRO
M220 S100 ;Set the feed speed to 100%
M221 S100 ;Set the flow rate to 100%
M104 S140 ;Start heating extruder
M190 S60 ;Wait for the bed to reach print temp
G90
G28 ;home
G1 Z10 F300
G1 X67.5 Y0 F6000
G1 Z0 F300
M109 S210 ;Wait for extruder to reach print temp
G92 E0 ;Reset Extruder
G1 X67.5 Y0 Z0.4 F300 ;Move to start position
G1 X167.5 E30 F400 ;Draw the first line
G1 Z0.6 F120.0 ;Move to side a little
G1 X162.5 F3000
G92 E0 ;Reset Extruder
G92 E0
G92 E0
G1 F2700 E-0.5
;LAYER_COUNT:70
;LAYER:0
M107
M204 S500
G0 F7200 X50.63 Y79.72 Z0.2
;TYPE:SKIRT
G1 F2700 E0
G1 F3600 X52.025 Y78.857 E0.07161
G1 X52.188 Y78.79 E0.0793
G1 X53.587 Y78.481 E0.14185
G1 X181.318 Y78.481 E5.71781
G1 X182.733 Y78.764 E5.7808
G1 X183.903 Y79.41 E5.83914
G1 X184.848 Y80.198 E5.89286
G1 X185.711 Y81.593 E5.96446
G1 X185.778 Y81.756 E5.97216
G1 X186.087 Y83.155 E6.0347
G1 X186.087 Y93.411 E6.48242
G1 X185.804 Y94.826 E6.54541
G1 X185.158 Y95.996 E6.60375
G1 X184.424 Y96.876 E6.65378
G1 X183.93 Y97.213 E6.67988
G1 X184.848 Y97.977 E6.73202
G1 X185.711 Y99.372 E6.80363
G1 X185.778 Y99.535 E6.81132
G1 X186.087 Y100.934 E6.87386
G1 X186.087 Y111.191 E7.32162
G1 X185.804 Y112.606 E7.38462
G1 X185.158 Y113.776 E7.44296
G1 X184.424 Y114.656 E7.49298
G1 X183.929 Y114.994 E7.51915
G1 X184.848 Y115.758 E7.57132
G1 X185.711 Y117.153 E7.64293
G1 X185.778 Y117.316 E7.65062
G1 X186.087 Y118.715 E7.71317
G1 X186.087 Y128.971 E8.16088
G1 X185.804 Y130.386 E8.22387
G1 X185.158 Y131.556 E8.28222
G1 X184.424 Y132.436 E8.33224
G1 X183.929 Y132.774 E8.35841
G1 X184.848 Y133.538 E8.41058
G1 X185.711 Y134.933 E8.48219
G1 X185.778 Y135.096 E8.48988
G1 X186.087 Y136.495 E8.55242
G1 X186.087 Y146.75 E9.00009
G1 X185.804 Y148.165 E9.06309
G1 X185.158 Y149.335 E9.12143
G1 X184.37 Y150.28 E9.17514
G1 X182.975 Y151.143 E9.24675
G1 X182.812 Y151.21 E9.25445
G1 X181.413 Y151.519 E9.31699
G1 X53.682 Y151.519 E14.89295
G1 X52.267 Y151.236 E14.95594
G1 X51.097 Y150.59 E15.01429
G1 X50.152 Y149.802 E15.068
G1 X49.289 Y148.407 E15.13961
G1 X49.222 Y148.244 E15.1473
G1 X48.913 Y146.845 E15.20984
G1 X48.913 Y136.59 E15.65752
G1 X49.196 Y135.175 E15.72051
G1 X49.842 Y134.005 E15.77885
G1 X50.576 Y133.125 E15.82888
G1 X51.071 Y132.787 E15.85504
G1 X50.152 Y132.023 E15.90721
G1 X49.289 Y130.628 E15.97882
G1 X49.222 Y130.465 E15.98651
G1 X48.913 Y129.066 E16.04906
G1 X48.913 Y118.81 E16.49677
G1 X49.196 Y117.395 E16.55977
G1 X49.842 Y116.225 E16.61811
G1 X50.576 Y115.345 E16.66813
G1 X51.071 Y115.007 E16.6943
G1 X50.152 Y114.243 E16.74647
G1 X49.289 Y112.848 E16.81808
G1 X49.222 Y112.685 E16.82577
G1 X48.913 Y111.286 E16.88832
G1 X48.913 Y101.029 E17.33607
G1 X49.196 Y99.614 E17.39907
G1 X49.842 Y98.444 E17.45741
G1 X50.576 Y97.564 E17.50744
G1 X51.07 Y97.227 E17.53354
G1 X50.152 Y96.463 E17.58568
G1 X49.289 Y95.068 E17.65729
G1 X49.222 Y94.905 E17.66498
G1 X48.913 Y93.506 E17.72752
G1 X48.913 Y83.25 E18.17524
G1 X49.196 Y81.835 E18.23823
G1 X49.842 Y80.665 E18.29657
G1 X50.63 Y79.72 E18.35029
G0 F7200 X50.979 Y80.121
G1 F3600 X52.301 Y79.303 E18.41815
G1 X53.646 Y79.006 E18.47828
G1 X181.265 Y79.006 E24.04935
G1 X182.552 Y79.263 E24.10664
G1 X183.605 Y79.845 E24.15917
G1 X184.447 Y80.547 E24.20702
G1 X185.265 Y81.869 E24.27489
G1 X185.562 Y83.214 E24.33502
G1 X185.562 Y93.358 E24.77784
G1 X185.305 Y94.645 E24.83513
G1 X184.723 Y95.698 E24.88765
G1 X184.021 Y96.54 E24.93551
G1 X182.899 Y97.234 E24.9931
G1 X183.605 Y97.624 E25.02831
G1 X184.447 Y98.326 E25.07617
G1 X185.265 Y99.648 E25.14403
G1 X185.562 Y100.993 E25.20416
G1 X185.562 Y111.138 E25.64703
G1 X185.305 Y112.425 E25.70432
G1 X184.723 Y113.478 E25.75684
G1 X184.021 Y114.32 E25.8047
G1 X182.898 Y115.014 E25.86233
G1 X183.605 Y115.405 E25.8976
G1 X184.447 Y116.107 E25.94545
G1 X185.265 Y117.429 E26.01332
G1 X185.562 Y118.774 E26.07345
G1 X185.562 Y128.918 E26.51627
G1 X185.305 Y130.205 E26.57356
G1 X184.723 Y131.258 E26.62609
G1 X184.021 Y132.1 E26.67394
G1 X182.898 Y132.794 E26.73157
G1 X183.605 Y133.185 E26.76684
G1 X184.447 Y133.887 E26.81469
G1 X185.265 Y135.209 E26.88256
G1 X185.562 Y136.554 E26.94269
G1 X185.562 Y146.697 E27.38547
G1 X185.305 Y147.984 E27.44276
G1 X184.723 Y149.037 E27.49528
G1 X184.021 Y149.879 E27.54314
G1 X182.699 Y150.697 E27.611
G1 X181.354 Y150.994 E27.67113
G1 X53.735 Y150.994 E33.2422
G1 X52.448 Y150.737 E33.2995
G1 X51.395 Y150.155 E33.35202
G1 X50.553 Y149.453 E33.39987
G1 X49.735 Y148.131 E33.46774
G1 X49.438 Y146.786 E33.52787
G1 X49.438 Y136.643 E33.97065
G1 X49.695 Y135.356 E34.02794
G1 X50.277 Y134.303 E34.08046
G1 X50.979 Y133.461 E34.12832
G1 X52.102 Y132.767 E34.18595
G1 X51.395 Y132.376 E34.22122
G1 X50.553 Y131.674 E34.26907
G1 X49.735 Y130.352 E34.33694
G1 X49.438 Y129.007 E34.39706
G1 X49.438 Y118.863 E34.83989
G1 X49.695 Y117.576 E34.89718
G1 X50.277 Y116.523 E34.9497
G1 X50.979 Y115.681 E34.99756
G1 X52.102 Y114.987 E35.05519
G1 X51.395 Y114.596 E35.09046
G1 X50.553 Y113.894 E35.13831
G1 X49.735 Y112.572 E35.20618
G1 X49.438 Y111.227 E35.26631
G1 X49.438 Y101.082 E35.70918
G1 X49.695 Y99.795 E35.76647
G1 X50.277 Y98.742 E35.81899
G1 X50.979 Y97.9 E35.86684
G1 X52.101 Y97.206 E35.92444
G1 X51.395 Y96.816 E35.95965
G1 X50.553 Y96.114 E36.0075
G1 X49.735 Y94.792 E36.07537
G1 X49.438 Y93.447 E36.1355
G1 X49.438 Y83.303 E36.57832
G1 X49.695 Y82.016 E36.63561
G1 X50.277 Y80.963 E36.68813
G1 X50.979 Y80.121 E36.73599
G0 F7200 X51.326 Y80.524
G1 F3600 X50.715 Y81.257 E36.77765
G1 X50.194 Y82.2 E36.82468
G1 X49.963 Y83.356 E36.87614
G1 X49.963 Y93.388 E37.31408
G1 X50.229 Y94.591 E37.36786
G1 X50.956 Y95.767 E37.42821
G1 X51.689 Y96.378 E37.46987
G1 X52.632 Y96.899 E37.5169
G1 X53.788 Y97.13 E37.56836
G1 X181.295 Y97.13 E43.13455
G1 X182.498 Y96.864 E43.18833
G1 X183.674 Y96.137 E43.24868
G1 X184.285 Y95.404 E43.29034
G1 X184.806 Y94.461 E43.33737
G1 X185.037 Y93.305 E43.38883
G1 X185.037 Y83.273 E43.82677
G1 X184.771 Y82.07 E43.88055
G1 X184.044 Y80.894 E43.94091
G1 X183.311 Y80.283 E43.98257
G1 X182.368 Y79.762 E44.0296
G1 X181.212 Y79.531 E44.08106
G1 X53.705 Y79.531 E49.64724
G1 X52.502 Y79.797 E49.70102
G1 X51.326 Y80.524 E49.76138
G1 F2700 E49.26138
G0 F7200 X53.705 Y97.31
G1 F2700 E49.76138
G1 F3600 X52.502 Y97.576 E49.81516
G1 X51.326 Y98.303 E49.87552
G1 X50.715 Y99.036 E49.91717
G1 X50.194 Y99.979 E49.9642
G1 X49.963 Y101.135 E50.01567
G1 X49.963 Y111.168 E50.45365
G1 X50.229 Y112.371 E50.50743
G1 X50.956 Y113.547 E50.56779
G1 X51.689 Y114.158 E50.60944
G1 X52.632 Y114.679 E50.65647
G1 X53.788 Y114.91 E50.70793
G1 X181.295 Y114.91 E56.27412
G1 X182.498 Y114.644 E56.3279
G1 X183.674 Y113.917 E56.38825
G1 X184.285 Y113.184 E56.42991
G1 X184.806 Y112.241 E56.47694
G1 X185.037 Y111.085 E56.5284
G1 X185.037 Y101.052 E56.96638
G1 X184.771 Y99.849 E57.02017
G1 X184.044 Y98.673 E57.08052
G1 X183.311 Y98.062 E57.12218
G1 X182.368 Y97.541 E57.16921
G1 X181.212 Y97.31 E57.22067
G1 X53.705 Y97.31 E62.78685
G0 F7200 X53.841 Y96.605
G1 F3600 X181.236 Y96.605 E68.34815
G1 X182.3 Y96.37 E68.39571
G1 X183.325 Y95.736 E68.44833
G1 X183.847 Y95.11 E68.48391
G1 X184.307 Y94.277 E68.52545
G1 X184.512 Y93.252 E68.57108
G1 X184.512 Y83.332 E69.00413
G1 X184.277 Y82.268 E69.05169
G1 X183.643 Y81.243 E69.10431
G1 X183.017 Y80.721 E69.13989
G1 X182.184 Y80.261 E69.18143
G1 X181.159 Y80.056 E69.22706
G1 X53.764 Y80.056 E74.78835
G1 X52.7 Y80.291 E74.83592
G1 X51.675 Y80.925 E74.88853
G1 X51.153 Y81.551 E74.92411
G1 X50.693 Y82.384 E74.96565
G1 X50.488 Y83.409 E75.01128
G1 X50.488 Y93.329 E75.44433
G1 X50.723 Y94.393 E75.4919
G1 X51.357 Y95.418 E75.54451
G1 X51.983 Y95.94 E75.58009
G1 X52.816 Y96.4 E75.62163
G1 X53.841 Y96.605 E75.66726
G0 F7200 X53.894 Y96.08
G1 F3600 X53 Y95.901 E75.70707
G1 X52.277 Y95.502 E75.74311
G1 X51.758 Y95.069 E75.77262
G1 X51.217 Y94.195 E75.81749
G1 X51.013 Y93.27 E75.85884
G1 X51.013 Y83.462 E76.287
G1 X51.192 Y82.568 E76.3268
G1 X51.591 Y81.845 E76.36285
G1 X52.024 Y81.326 E76.39236
G1 X52.898 Y80.785 E76.43723
G1 X53.823 Y80.581 E76.47858
G1 X181.106 Y80.581 E82.03498
G1 X182 Y80.76 E82.07478
G1 X182.723 Y81.159 E82.11083
G1 X183.242 Y81.592 E82.14034
G1 X183.783 Y82.466 E82.18521
G1 X183.987 Y83.391 E82.22656
G1 X183.987 Y93.199 E82.65472
G1 X183.808 Y94.093 E82.69452
G1 X183.409 Y94.816 E82.73057
G1 X182.976 Y95.335 E82.76007
G1 X182.102 Y95.876 E82.80494
G1 X181.177 Y96.08 E82.84629
G1 X53.894 Y96.08 E88.4027
G0 F7200 X53.947 Y95.555
G1 F3600 X53.182 Y95.402 E88.43675
G1 X52.576 Y95.068 E88.46696
G1 X52.16 Y94.72 E88.49064
G1 X51.711 Y93.994 E88.5279
G1 X51.538 Y93.211 E88.5629
G1 X51.538 Y83.515 E88.98617
G1 X51.691 Y82.75 E89.02023
G1 X52.025 Y82.144 E89.05044
G1 X52.373 Y81.728 E89.07411
G1 X53.099 Y81.279 E89.11138
G1 X53.882 Y81.106 E89.14638
G1 X181.053 Y81.106 E94.6979
G1 X181.818 Y81.259 E94.73195
G1 X182.424 Y81.593 E94.76216
G1 X182.84 Y81.941 E94.78583
G1 X183.289 Y82.667 E94.8231
G1 X183.462 Y83.45 E94.8581
G1 X183.462 Y93.146 E95.28137
G1 X183.309 Y93.911 E95.31543
G1 X182.975 Y94.517 E95.34564
G1 X182.627 Y94.933 E95.36931
G1 X181.901 Y95.382 E95.40658
G1 X181.118 Y95.555 E95.44158
G1 X53.947 Y95.555 E100.9931
G0 F7200 X54 Y95.03
G1 F3600 X53.365 Y94.903 E101.02136
G1 X52.83 Y94.608 E101.04803
G1 X52.561 Y94.371 E101.06368
G1 X52.205 Y93.796 E101.09321
G1 X52.063 Y93.152 E101.122
G1 X52.063 Y83.568 E101.54038
G1 X52.19 Y82.933 E101.56864
G1 X52.485 Y82.398 E101.59531
G1 X52.722 Y82.129 E101.61096
G1 X53.297 Y81.773 E101.64049
G1 X53.941 Y81.631 E101.66928
G1 X181 Y81.631 E107.2159
G1 X181.635 Y81.758 E107.24417
G1 X182.17 Y82.053 E107.27084
G1 X182.439 Y82.29 E107.28649
G1 X182.795 Y82.865 E107.31601
G1 X182.937 Y83.509 E107.3448
G1 X182.937 Y93.093 E107.76318
G1 X182.81 Y93.728 E107.79145
G1 X182.515 Y94.263 E107.81812
G1 X182.278 Y94.532 E107.83377
G1 X181.703 Y94.888 E107.86329
G1 X181.059 Y95.03 E107.89208
G1 X54 Y95.03 E113.4387
G0 F7200 X54 Y94.505
G1 F3600 X53.619 Y94.443 E113.45556
G1 X53.084 Y94.148 E113.48223
G1 X52.929 Y93.996 E113.4917
G1 X52.699 Y93.597 E113.51181
G1 X52.588 Y93.093 E113.53434
G1 X52.588 Y83.568 E113.95014
G1 X52.65 Y83.187 E113.96699
G1 X52.945 Y82.652 E113.99366
G1 X53.097 Y82.497 E114.00314
G1 X53.496 Y82.267 E114.02324
G1 X54 Y82.156 E114.04577
G1 X181 Y82.156 E119.58982
G1 X181.381 Y82.218 E119.60667
G1 X181.916 Y82.513 E119.63334
G1 X182.071 Y82.665 E119.64282
G1 X182.301 Y83.064 E119.66292
G1 X182.412 Y83.568 E119.68545
G1 X182.412 Y93.093 E120.10125
G1 X182.35 Y93.474 E120.11811
G1 X182.055 Y94.009 E120.14478
G1 X181.903 Y94.164 E120.15425
G1 X181.504 Y94.394 E120.17436
G1 X181 Y94.505 E120.19689
G1 X54 Y94.505 E125.74093
G1 F2700 E125.24093
G0 F7200 X54 Y93.455
G1 F2700 E125.74093
G1 F3600 X53.836 Y93.416 E125.74829
G1 X53.707 Y93.306 E125.75569
G1 X53.638 Y93.093 E125.76547
G1 X53.638 Y83.568 E126.18127
G1 X53.677 Y83.404 E126.18863
G1 X53.787 Y83.275 E126.19603
G1 X54 Y83.206 E126.20581
G1 X181 Y83.206 E131.74985
G1 X181.164 Y83.245 E131.75721
G1 X181.293 Y83.355 E131.76461
G1 X181.362 Y83.568 E131.77439
G1 X181.362 Y93.093 E132.19019
G1 X181.323 Y93.257 E132.19755
G1 X181.213 Y93.386 E132.20495
G1 X181 Y93.455 E132.21473
G1 X54 Y93.455 E137.75877
G0 F7200 X54 Y93.98
G1 F3600 X53.715 Y93.927 E137.77143
G1 X53.366 Y93.705 E137.78948
G1 X53.208 Y93.468 E137.80192
G1 X53.113 Y93.093 E137.81881
G1 X53.113 Y83.568 E138.23461
G1 X53.166 Y83.283 E138.24726
G1 X53.388 Y82.934 E138.26532
G1 X53.625 Y82.776 E138.27776
G1 X54 Y82.681 E138.29464
G1 X181 Y82.681 E143.83869
G1 X181.285 Y82.734 E143.85135
G1 X181.634 Y82.956 E143.8694
G1 X181.792 Y83.193 E143.88184
G1 X181.887 Y83.568 E143.89872
G1 X181.887 Y93.093 E144.31453
G1 X181.834 Y93.378 E144.32718
G1 X181.612 Y93.727 E144.34524
G1 X181.375 Y93.885 E144.35767
G1 X181 Y93.98 E144.37456
G1 X54 Y93.98 E149.91861
G1 F2700 E149.41861
G0 F7200 X53.347 Y100.694
G0 X53.347 Y111.526
G0 X53.705 Y115.091
G1 F2700 E149.91861
G1 F3600 X181.212 Y115.091 E155.48479
G1 X182.368 Y115.322 E155.53625
G1 X183.311 Y115.843 E155.58328
G1 X184.044 Y116.454 E155.62494
G1 X184.771 Y117.63 E155.68529
G1 X185.037 Y118.833 E155.73908
G1 X185.037 Y128.865 E156.17702
G1 X184.806 Y130.021 E156.22848
G1 X184.285 Y130.964 E156.27551
G1 X183.674 Y131.697 E156.31716
G1 X182.498 Y132.424 E156.37752
G1 X181.295 Y132.69 E156.4313
G1 X53.788 Y132.69 E161.99748
G1 X52.632 Y132.459 E162.04895
G1 X51.689 Y131.938 E162.09598
G1 X50.956 Y131.327 E162.13763
G1 X50.229 Y130.151 E162.19799
G1 X49.963 Y128.948 E162.25177
G1 X49.963 Y118.916 E162.68971
G1 X50.194 Y117.76 E162.74117
G1 X50.715 Y116.817 E162.7882
G1 X51.326 Y116.084 E162.82986
G1 X52.502 Y115.357 E162.89021
G1 X53.705 Y115.091 E162.944
G0 F7200 X53.841 Y114.385
G1 F3600 X181.236 Y114.385 E168.50529
G1 X182.3 Y114.15 E168.55286
G1 X183.325 Y113.516 E168.60547
G1 X183.847 Y112.89 E168.64105
G1 X184.307 Y112.057 E168.68259
G1 X184.512 Y111.032 E168.72822
G1 X184.512 Y101.111 E169.16131
G1 X184.277 Y100.047 E169.20888
G1 X183.643 Y99.022 E169.26149
G1 X183.017 Y98.5 E169.29708
G1 X182.184 Y98.04 E169.33861
G1 X181.159 Y97.835 E169.38425
G1 X53.764 Y97.835 E174.94554
G1 X52.7 Y98.07 E174.99311
G1 X51.675 Y98.704 E175.04572
G1 X51.153 Y99.33 E175.0813
G1 X50.693 Y100.163 E175.12284
G1 X50.488 Y101.188 E175.16847
G1 X50.488 Y111.109 E175.60156
G1 X50.723 Y112.173 E175.64913
G1 X51.357 Y113.198 E175.70174
G1 X51.983 Y113.72 E175.73732
G1 X52.816 Y114.18 E175.77886
G1 X53.841 Y114.385 E175.8245
G0 F7200 X53.894 Y113.86
G1 F3600 X181.177 Y113.86 E181.3809
G1 X182.102 Y113.656 E181.42225
G1 X182.976 Y113.115 E181.46712
G1 X183.409 Y112.596 E181.49663
G1 X183.808 Y111.873 E181.53267
G1 X183.987 Y110.979 E181.57248
G1 X183.987 Y101.17 E182.00068
G1 X183.783 Y100.245 E182.04203
G1 X183.242 Y99.371 E182.0869
G1 X182.723 Y98.938 E182.1164
G1 X182 Y98.539 E182.15245
G1 X181.106 Y98.36 E182.19225
G1 X53.823 Y98.36 E187.74866
G1 X52.898 Y98.564 E187.79001
G1 X52.024 Y99.105 E187.83488
G1 X51.591 Y99.624 E187.86439
G1 X51.192 Y100.347 E187.90043
G1 X51.013 Y101.241 E187.94024
G1 X51.013 Y111.05 E188.36844
G1 X51.217 Y111.975 E188.40979
G1 X51.758 Y112.849 E188.45466
G1 X52.277 Y113.282 E188.48416
G1 X53 Y113.681 E188.52021
G1 X53.894 Y113.86 E188.56001
G0 F7200 X53.947 Y113.335
G1 F3600 X181.118 Y113.335 E194.11153
G1 X181.901 Y113.162 E194.14653
G1 X182.627 Y112.713 E194.1838
G1 X182.975 Y112.297 E194.20747
G1 X183.309 Y111.691 E194.23768
G1 X183.462 Y110.926 E194.27174
G1 X183.462 Y101.229 E194.69505
G1 X183.289 Y100.446 E194.73005
G1 X182.84 Y99.72 E194.76732
G1 X182.424 Y99.372 E194.791
G1 X181.818 Y99.038 E194.8212
G1 X181.053 Y98.885 E194.85526
G1 X53.882 Y98.885 E200.40677
G1 X53.099 Y99.058 E200.44178
G1 X52.373 Y99.507 E200.47904
G1 X52.025 Y99.923 E200.50272
G1 X51.691 Y100.529 E200.53292
G1 X51.538 Y101.294 E200.56698
G1 X51.538 Y110.991 E200.99029
G1 X51.711 Y111.774 E201.0253
G1 X52.16 Y112.5 E201.06256
G1 X52.576 Y112.848 E201.08624
G1 X53.182 Y113.182 E201.11644
G1 X53.947 Y113.335 E201.1505
G0 F7200 X54 Y112.81
G1 F3600 X181.059 Y112.81 E206.69713
G1 X181.703 Y112.668 E206.72591
G1 X182.278 Y112.312 E206.75544
G1 X182.515 Y112.043 E206.77109
G1 X182.81 Y111.508 E206.79776
G1 X182.937 Y110.873 E206.82603
G1 X182.937 Y101.288 E207.24445
G1 X182.795 Y100.644 E207.27324
G1 X182.439 Y100.069 E207.30276
G1 X182.17 Y99.832 E207.31841
G1 X181.635 Y99.537 E207.34508
G1 X181 Y99.41 E207.37335
G1 X53.941 Y99.41 E212.91997
G1 X53.297 Y99.552 E212.94876
G1 X52.722 Y99.908 E212.97828
G1 X52.485 Y100.177 E212.99394
G1 X52.19 Y100.712 E213.02061
G1 X52.063 Y101.347 E213.04887
G1 X52.063 Y110.932 E213.4673
G1 X52.205 Y111.576 E213.49609
G1 X52.561 Y112.151 E213.52561
G1 X52.83 Y112.388 E213.54126
G1 X53.365 Y112.683 E213.56793
G1 X54 Y112.81 E213.5962
G0 F7200 X54 Y112.285
G1 F3600 X181 Y112.285 E219.14025
G1 X181.504 Y112.174 E219.16278
G1 X181.903 Y111.944 E219.18288
