;FLAVOR:Marlin
;TIME:3688
;Filament used: 9.74293m
;Layer height: 0.2
;MINX:58.432
;MINY:83.156
;MINZ:0.2
;MAXX:169.617
;MAXY:173.902
;MAXZ:31.8
;TARGET_MACHINE.NAME:ELEGOO NEPTUNE 4 Pro
;Generated with Cura_SteamEngine 5.7.1
M82 ;absolute extrusion mode
;ELEGOO NEPTUNE 4 / 4 PRO
M220 S100 ;Set the feed speed to 100%
M221 S100 ;Set the flow rate to 100%
M104 S140 ;Start heating extruder
M190 S60 ;Wait for the bed to reach print temp
G90
G28 ;home
G1 Z10 F300
G1 X67.5 Y0 F6000
G1 Z0 F300
M109 S210 ;Wait for extruder to reach print temp
G92 E0 ;Reset Extruder
G1 X67.5 Y0 Z0.4 F300 ;Move to start position
G1 X167.5 E30 F400 ;Draw the first line
G1 Z0.6 F120.0 ;Move to side a little
G1 X162.5 F3000
G92 E0 ;Reset Extruder
G92 E0
G92 E0
G1 F2700 E-0.5
;LAYER_COUNT:159
;LAYER:0
M107
M204 S500
G0 F7200 X60.149 Y88.767 Z0.2
;TYPE:SKIRT
G1 F2700 E0
G1 F3600 X61.544 Y87.904 E0.07161
G1 X61.707 Y87.837 E0.0793
G1 X63.106 Y87.528 E0.14185
G1 X70.187 Y87.528 E0.45096
G1 X71.602 Y87.811 E0.51395
G1 X72.772 Y88.457 E0.5723
G1 X73.717 Y89.245 E0.62601
G1 X74.58 Y90.64 E0.69762
G1 X74.647 Y90.803 E0.70531
G1 X74.956 Y92.202 E0.76785
G1 X74.956 Y169.133 E4.12619
G1 X74.673 Y170.548 E4.18919
G1 X74.027 Y171.718 E4.24753
G1 X73.239 Y172.663 E4.30124
G1 X71.844 Y173.526 E4.37285
G1 X71.681 Y173.593 E4.38055
G1 X70.282 Y173.902 E4.44309
G1 X63.201 Y173.902 E4.7522
G1 X61.786 Y173.619 E4.8152
G1 X60.616 Y172.973 E4.87354
G1 X59.671 Y172.185 E4.92725
G1 X58.808 Y170.79 E4.99886
G1 X58.741 Y170.627 E5.00656
G1 X58.432 Y169.228 E5.0691
G1 X58.432 Y92.297 E8.42744
G1 X58.715 Y90.882 E8.49043
G1 X59.361 Y89.712 E8.54878
G1 X60.149 Y88.767 E8.60249
G0 F7200 X60.498 Y89.168
G1 F3600 X61.82 Y88.35 E8.67035
G1 X63.165 Y88.053 E8.73048
G1 X70.134 Y88.053 E9.03471
G1 X71.421 Y88.31 E9.092
G1 X72.474 Y88.892 E9.14452
G1 X73.316 Y89.594 E9.19238
G1 X74.134 Y90.916 E9.26024
G1 X74.431 Y92.261 E9.32037
G1 X74.431 Y169.08 E12.67382
G1 X74.174 Y170.367 E12.73111
G1 X73.592 Y171.42 E12.78363
G1 X72.89 Y172.262 E12.83149
G1 X71.568 Y173.08 E12.89936
G1 X70.223 Y173.377 E12.95948
G1 X63.254 Y173.377 E13.26371
G1 X61.967 Y173.12 E13.321
G1 X60.914 Y172.538 E13.37352
G1 X60.072 Y171.836 E13.42138
G1 X59.254 Y170.514 E13.48924
G1 X58.957 Y169.169 E13.54937
G1 X58.957 Y92.35 E16.90282
G1 X59.214 Y91.063 E16.96011
G1 X59.796 Y90.01 E17.01264
G1 X60.498 Y89.168 E17.06049
G0 F7200 X60.845 Y89.571
G1 F3600 X62.021 Y88.844 E17.12085
G1 X63.224 Y88.578 E17.17463
G1 X70.081 Y88.578 E17.47396
G1 X71.237 Y88.809 E17.52543
G1 X72.18 Y89.33 E17.57246
G1 X72.913 Y89.941 E17.61411
G1 X73.64 Y91.117 E17.67447
G1 X73.906 Y92.32 E17.72825
G1 X73.906 Y169.027 E21.07682
G1 X73.675 Y170.183 E21.12828
G1 X73.154 Y171.126 E21.17531
G1 X72.543 Y171.859 E21.21696
G1 X71.367 Y172.586 E21.27732
G1 X70.164 Y172.852 E21.3311
G1 X63.307 Y172.852 E21.63044
G1 X62.151 Y172.621 E21.6819
G1 X61.208 Y172.1 E21.72893
G1 X60.475 Y171.489 E21.77059
G1 X59.748 Y170.313 E21.83094
G1 X59.482 Y169.11 E21.88473
G1 X59.482 Y92.403 E25.23329
G1 X59.713 Y91.247 E25.28475
G1 X60.234 Y90.304 E25.33178
G1 X60.845 Y89.571 E25.37344
G0 F7200 X61.194 Y89.972
G1 F3600 X62.219 Y89.338 E25.42605
G1 X63.283 Y89.103 E25.47362
G1 X70.028 Y89.103 E25.76806
G1 X71.053 Y89.308 E25.8137
G1 X71.886 Y89.768 E25.85524
G1 X72.512 Y90.29 E25.89082
G1 X73.146 Y91.315 E25.94343
G1 X73.381 Y92.379 E25.991
G1 X73.381 Y168.974 E29.33467
G1 X73.176 Y169.999 E29.3803
G1 X72.716 Y170.832 E29.42184
G1 X72.194 Y171.458 E29.45742
G1 X71.169 Y172.092 E29.51004
G1 X70.105 Y172.327 E29.5576
G1 X63.36 Y172.327 E29.85205
G1 X62.335 Y172.122 E29.89768
G1 X61.502 Y171.662 E29.93922
G1 X60.876 Y171.14 E29.9748
G1 X60.242 Y170.115 E30.02741
G1 X60.007 Y169.051 E30.07498
G1 X60.007 Y92.456 E33.41865
G1 X60.212 Y91.431 E33.46429
G1 X60.672 Y90.598 E33.50583
G1 X61.194 Y89.972 E33.54141
G0 F7200 X61.543 Y90.373
G1 F3600 X62.417 Y89.832 E33.58628
G1 X63.342 Y89.628 E33.62763
G1 X69.975 Y89.628 E33.91718
G1 X70.869 Y89.807 E33.95699
G1 X71.592 Y90.206 E33.99303
G1 X72.111 Y90.639 E34.02254
G1 X72.652 Y91.513 E34.06741
G1 X72.856 Y92.438 E34.10876
G1 X72.856 Y168.921 E37.44755
G1 X72.677 Y169.815 E37.48735
G1 X72.278 Y170.538 E37.5234
G1 X71.845 Y171.057 E37.5529
G1 X70.971 Y171.598 E37.59777
G1 X70.046 Y171.802 E37.63912
G1 X63.413 Y171.802 E37.92868
G1 X62.519 Y171.623 E37.96848
G1 X61.796 Y171.224 E38.00453
G1 X61.277 Y170.791 E38.03404
G1 X60.736 Y169.917 E38.07891
G1 X60.532 Y168.992 E38.12026
G1 X60.532 Y92.509 E41.45904
G1 X60.711 Y91.615 E41.49884
G1 X61.11 Y90.892 E41.53489
G1 X61.543 Y90.373 E41.5644
G0 F7200 X61.892 Y90.775
G1 F3600 X62.618 Y90.326 E41.60166
G1 X63.401 Y90.153 E41.63667
G1 X69.922 Y90.153 E41.92133
G1 X70.687 Y90.306 E41.95539
G1 X71.293 Y90.64 E41.9856
G1 X71.709 Y90.988 E42.00927
G1 X72.158 Y91.714 E42.04654
G1 X72.331 Y92.497 E42.08154
G1 X72.331 Y168.868 E45.41544
G1 X72.178 Y169.633 E45.44949
G1 X71.844 Y170.239 E45.4797
G1 X71.496 Y170.655 E45.50338
G1 X70.77 Y171.104 E45.54064
G1 X69.987 Y171.277 E45.57565
G1 X63.466 Y171.277 E45.86031
G1 X62.701 Y171.124 E45.89437
G1 X62.095 Y170.79 E45.92458
G1 X61.679 Y170.442 E45.94825
G1 X61.23 Y169.716 E45.98552
G1 X61.057 Y168.933 E46.02052
G1 X61.057 Y92.562 E49.35442
G1 X61.21 Y91.797 E49.38847
G1 X61.544 Y91.191 E49.41868
G1 X61.892 Y90.775 E49.44236
G0 F7200 X62.241 Y91.176
G1 F3600 X62.816 Y90.82 E49.47188
G1 X63.46 Y90.678 E49.50067
G1 X69.869 Y90.678 E49.78044
G1 X70.504 Y90.805 E49.80871
G1 X71.039 Y91.1 E49.83538
G1 X71.308 Y91.337 E49.85103
G1 X71.664 Y91.912 E49.88056
G1 X71.806 Y92.556 E49.90934
G1 X71.806 Y168.815 E53.23835
G1 X71.679 Y169.45 E53.26662
G1 X71.384 Y169.985 E53.29329
G1 X71.147 Y170.254 E53.30894
G1 X70.572 Y170.61 E53.33846
G1 X69.928 Y170.752 E53.36725
G1 X63.519 Y170.752 E53.64703
G1 X62.884 Y170.625 E53.6753
G1 X62.349 Y170.33 E53.70197
G1 X62.08 Y170.093 E53.71762
G1 X61.724 Y169.518 E53.74714
G1 X61.582 Y168.874 E53.77593
G1 X61.582 Y92.615 E57.10493
G1 X61.709 Y91.98 E57.1332
G1 X62.004 Y91.445 E57.15987
G1 X62.241 Y91.176 E57.17552
G0 F7200 X62.616 Y91.544
G1 F3600 X63.015 Y91.314 E57.19563
G1 X63.519 Y91.203 E57.21816
G1 X69.869 Y91.203 E57.49536
G1 X70.25 Y91.265 E57.51221
G1 X70.785 Y91.56 E57.53888
G1 X70.94 Y91.712 E57.54836
G1 X71.17 Y92.111 E57.56846
G1 X71.281 Y92.615 E57.59099
G1 X71.281 Y168.815 E60.91742
G1 X71.219 Y169.196 E60.93427
G1 X70.924 Y169.731 E60.96094
G1 X70.772 Y169.886 E60.97042
G1 X70.373 Y170.116 E60.99052
G1 X69.869 Y170.227 E61.01305
G1 X63.519 Y170.227 E61.29025
G1 X63.138 Y170.165 E61.3071
G1 X62.603 Y169.87 E61.33377
G1 X62.448 Y169.718 E61.34325
G1 X62.218 Y169.319 E61.36336
G1 X62.107 Y168.815 E61.38588
G1 X62.107 Y92.615 E64.71231
G1 X62.169 Y92.234 E64.72916
G1 X62.464 Y91.699 E64.75583
G1 X62.616 Y91.544 E64.76531
G1 F2700 E64.26531
G0 F7200 X63.306 Y92.322
G1 F2700 E64.76531
G1 F3600 X63.519 Y92.253 E64.77509
G1 X69.869 Y92.253 E65.05229
G1 X70.033 Y92.292 E65.05965
G1 X70.162 Y92.402 E65.06705
G1 X70.231 Y92.615 E65.07682
G1 X70.231 Y168.815 E68.40325
G1 X70.192 Y168.979 E68.41061
G1 X70.082 Y169.108 E68.41801
G1 X69.869 Y169.177 E68.42778
G1 X63.519 Y169.177 E68.70499
G1 X63.355 Y169.138 E68.71235
G1 X63.226 Y169.028 E68.71975
G1 X63.157 Y168.815 E68.72952
G1 X63.157 Y92.615 E72.05595
G1 X63.196 Y92.451 E72.06331
G1 X63.306 Y92.322 E72.07071
G0 F7200 X63.144 Y91.823
G1 F3600 X63.519 Y91.728 E72.0876
G1 X69.869 Y91.728 E72.3648
G1 X70.154 Y91.781 E72.37745
G1 X70.503 Y92.003 E72.39551
G1 X70.661 Y92.24 E72.40794
G1 X70.756 Y92.615 E72.42483
G1 X70.756 Y168.815 E75.75126
G1 X70.703 Y169.1 E75.76392
G1 X70.481 Y169.449 E75.78197
G1 X70.244 Y169.607 E75.79441
G1 X69.869 Y169.702 E75.81129
G1 X63.519 Y169.702 E76.0885
G1 X63.234 Y169.649 E76.10115
G1 X62.885 Y169.427 E76.11921
G1 X62.727 Y169.19 E76.13164
G1 X62.632 Y168.815 E76.14853
G1 X62.632 Y92.615 E79.47496
G1 X62.685 Y92.33 E79.48761
G1 X62.907 Y91.981 E79.50567
G1 X63.144 Y91.823 E79.5181
G1 F2700 E79.0181
G0 F7200 X70.522 Y91.962
G0 X82.405 Y95.006
G1 F2700 E79.5181
G1 F3600 X82.405 Y87.925 E79.82722
G1 X82.688 Y86.51 E79.89021
G1 X83.334 Y85.34 E79.94855
G1 X84.122 Y84.395 E80.00227
G1 X85.517 Y83.532 E80.07388
G1 X85.68 Y83.465 E80.08157
G1 X87.079 Y83.156 E80.14411
G1 X164.01 Y83.156 E83.50245
G1 X165.425 Y83.439 E83.56545
G1 X166.595 Y84.085 E83.62379
G1 X167.54 Y84.873 E83.6775
G1 X168.403 Y86.268 E83.74911
G1 X168.47 Y86.431 E83.7568
G1 X168.779 Y87.83 E83.81935
G1 X168.779 Y94.911 E84.12846
G1 X168.496 Y96.326 E84.19146
G1 X167.85 Y97.496 E84.2498
G1 X167.062 Y98.441 E84.30351
G1 X165.667 Y99.304 E84.37512
G1 X165.504 Y99.371 E84.38281
G1 X164.105 Y99.68 E84.44536
G1 X87.174 Y99.68 E87.8037
G1 X85.759 Y99.397 E87.86669
G1 X84.589 Y98.751 E87.92503
G1 X83.644 Y97.963 E87.97875
G1 X82.781 Y96.568 E88.05036
G1 X82.714 Y96.405 E88.05805
G1 X82.405 Y95.006 E88.12059
G0 F7200 X82.93 Y94.947
G1 F3600 X82.93 Y87.978 E88.42482
G1 X83.187 Y86.691 E88.48211
G1 X83.769 Y85.638 E88.53463
G1 X84.471 Y84.796 E88.58249
G1 X85.793 Y83.978 E88.65035
G1 X87.138 Y83.681 E88.71048
G1 X163.957 Y83.681 E92.06393
G1 X165.244 Y83.938 E92.12122
G1 X166.297 Y84.52 E92.17374
G1 X167.139 Y85.222 E92.2216
G1 X167.957 Y86.544 E92.28946
G1 X168.254 Y87.889 E92.34959
G1 X168.254 Y94.858 E92.65382
G1 X167.997 Y96.145 E92.71111
G1 X167.415 Y97.198 E92.76363
G1 X166.713 Y98.04 E92.81149
G1 X165.391 Y98.858 E92.87935
G1 X164.046 Y99.155 E92.93948
G1 X87.227 Y99.155 E96.29293
G1 X85.94 Y98.898 E96.35022
G1 X84.887 Y98.316 E96.40275
G1 X84.045 Y97.614 E96.4506
G1 X83.227 Y96.292 E96.51847
G1 X82.93 Y94.947 E96.57859
G0 F7200 X83.455 Y94.888
G1 F3600 X83.455 Y88.031 E96.87793
G1 X83.686 Y86.875 E96.92939
G1 X84.207 Y85.932 E96.97642
G1 X84.818 Y85.199 E97.01808
G1 X85.994 Y84.472 E97.07843
G1 X87.197 Y84.206 E97.13222
G1 X163.904 Y84.206 E100.48078
G1 X165.06 Y84.437 E100.53224
G1 X166.003 Y84.958 E100.57927
G1 X166.736 Y85.569 E100.62093
G1 X167.463 Y86.745 E100.68128
G1 X167.729 Y87.948 E100.73507
G1 X167.729 Y94.805 E101.0344
G1 X167.498 Y95.961 E101.08586
G1 X166.977 Y96.904 E101.1329
G1 X166.366 Y97.637 E101.17455
G1 X165.19 Y98.364 E101.23491
G1 X163.987 Y98.63 E101.28869
G1 X87.28 Y98.63 E104.63725
G1 X86.124 Y98.399 E104.68871
G1 X85.181 Y97.878 E104.73575
G1 X84.448 Y97.267 E104.7774
G1 X83.721 Y96.091 E104.83776
G1 X83.455 Y94.888 E104.89154
G0 F7200 X83.98 Y94.829
G1 F3600 X83.98 Y88.084 E105.18599
G1 X84.185 Y87.059 E105.23162
G1 X84.645 Y86.226 E105.27316
G1 X85.167 Y85.6 E105.30874
G1 X86.192 Y84.966 E105.36135
G1 X87.256 Y84.731 E105.40892
G1 X163.851 Y84.731 E108.75259
G1 X164.876 Y84.936 E108.79822
G1 X165.709 Y85.396 E108.83976
G1 X166.335 Y85.918 E108.87535
G1 X166.969 Y86.943 E108.92796
G1 X167.204 Y88.007 E108.97553
G1 X167.204 Y94.752 E109.26997
G1 X166.999 Y95.777 E109.3156
G1 X166.539 Y96.61 E109.35714
G1 X166.017 Y97.236 E109.39272
G1 X164.992 Y97.87 E109.44534
G1 X163.928 Y98.105 E109.4929
G1 X87.333 Y98.105 E112.83658
G1 X86.308 Y97.9 E112.88221
G1 X85.475 Y97.44 E112.92375
G1 X84.849 Y96.918 E112.95933
G1 X84.215 Y95.893 E113.01194
G1 X83.98 Y94.829 E113.05951
G0 F7200 X84.505 Y94.77
G1 F3600 X84.505 Y88.137 E113.34907
G1 X84.684 Y87.243 E113.38887
G1 X85.083 Y86.52 E113.42492
G1 X85.516 Y86.001 E113.45442
G1 X86.39 Y85.46 E113.49929
G1 X87.315 Y85.256 E113.54064
G1 X163.798 Y85.256 E116.87943
G1 X164.692 Y85.435 E116.91923
G1 X165.415 Y85.834 E116.95528
G1 X165.934 Y86.267 E116.98478
G1 X166.475 Y87.141 E117.02966
G1 X166.679 Y88.066 E117.07101
G1 X166.679 Y94.699 E117.36056
G1 X166.5 Y95.593 E117.40036
G1 X166.101 Y96.316 E117.43641
G1 X165.668 Y96.835 E117.46592
G1 X164.794 Y97.376 E117.51079
G1 X163.869 Y97.58 E117.55214
G1 X87.386 Y97.58 E120.89092
G1 X86.492 Y97.401 E120.93072
G1 X85.769 Y97.002 E120.96677
G1 X85.25 Y96.569 E120.99628
G1 X84.709 Y95.695 E121.04115
G1 X84.505 Y94.77 E121.0825
G0 F7200 X85.03 Y94.711
G1 F3600 X85.03 Y88.19 E121.36717
G1 X85.183 Y87.425 E121.40122
G1 X85.517 Y86.819 E121.43143
G1 X85.865 Y86.403 E121.45511
G1 X86.591 Y85.954 E121.49237
G1 X87.374 Y85.781 E121.52738
G1 X163.745 Y85.781 E124.86127
G1 X164.51 Y85.934 E124.89533
G1 X165.116 Y86.268 E124.92553
G1 X165.532 Y86.616 E124.94921
G1 X165.981 Y87.342 E124.98647
G1 X166.154 Y88.125 E125.02148
G1 X166.154 Y94.646 E125.30615
G1 X166.001 Y95.411 E125.3402
G1 X165.667 Y96.017 E125.37041
G1 X165.319 Y96.433 E125.39409
G1 X164.593 Y96.882 E125.43135
G1 X163.81 Y97.055 E125.46636
G1 X87.439 Y97.055 E128.80025
G1 X86.674 Y96.902 E128.83431
G1 X86.068 Y96.568 E128.86451
G1 X85.652 Y96.22 E128.88819
G1 X85.203 Y95.494 E128.92545
G1 X85.03 Y94.711 E128.96046
G0 F7200 X85.555 Y94.652
G1 F3600 X85.555 Y88.243 E129.24024
G1 X85.682 Y87.608 E129.26851
G1 X85.977 Y87.073 E129.29518
G1 X86.214 Y86.804 E129.31083
G1 X86.789 Y86.448 E129.34035
G1 X87.433 Y86.306 E129.36914
G1 X163.692 Y86.306 E132.69814
G1 X164.327 Y86.433 E132.72641
G1 X164.862 Y86.728 E132.75308
G1 X165.131 Y86.965 E132.76873
G1 X165.487 Y87.54 E132.79825
G1 X165.629 Y88.184 E132.82704
G1 X165.629 Y94.593 E133.10682
G1 X165.502 Y95.228 E133.13509
G1 X165.207 Y95.763 E133.16176
G1 X164.97 Y96.032 E133.17741
G1 X164.395 Y96.388 E133.20693
G1 X163.751 Y96.53 E133.23572
G1 X87.492 Y96.53 E136.56473
G1 X86.857 Y96.403 E136.593
G1 X86.322 Y96.108 E136.61967
G1 X86.053 Y95.871 E136.63532
G1 X85.697 Y95.296 E136.66484
G1 X85.555 Y94.652 E136.69363
G0 F7200 X86.08 Y94.593
G1 F3600 X86.08 Y88.243 E136.97083
G1 X86.142 Y87.862 E136.98768
G1 X86.437 Y87.327 E137.01435
G1 X86.589 Y87.172 E137.02383
G1 X86.988 Y86.942 E137.04393
G1 X87.492 Y86.831 E137.06646
G1 X163.692 Y86.831 E140.39289
G1 X164.073 Y86.893 E140.40974
G1 X164.608 Y87.188 E140.43641
G1 X164.763 Y87.34 E140.44589
G1 X164.993 Y87.739 E140.46599
G1 X165.104 Y88.243 E140.48852
G1 X165.104 Y94.593 E140.76572
G1 X165.042 Y94.974 E140.78257
G1 X164.747 Y95.509 E140.80924
G1 X164.595 Y95.664 E140.81872
G1 X164.196 Y95.894 E140.83883
G1 X163.692 Y96.005 E140.86135
G1 X87.492 Y96.005 E144.18778
G1 X87.111 Y95.943 E144.20463
G1 X86.576 Y95.648 E144.2313
G1 X86.421 Y95.496 E144.24078
G1 X86.191 Y95.097 E144.26089
G1 X86.08 Y94.593 E144.28342
G1 F2700 E143.78342
G0 F7200 X87.13 Y94.593
G1 F2700 E144.28342
G1 F3600 X87.13 Y88.243 E144.56062
G1 X87.169 Y88.079 E144.56798
G1 X87.279 Y87.95 E144.57538
G1 X87.492 Y87.881 E144.58515
G1 X163.692 Y87.881 E147.91158
G1 X163.856 Y87.92 E147.91894
G1 X163.985 Y88.03 E147.92634
G1 X164.054 Y88.243 E147.93611
G1 X164.054 Y94.593 E148.21332
G1 X164.015 Y94.757 E148.22068
G1 X163.905 Y94.886 E148.22808
G1 X163.692 Y94.955 E148.23785
G1 X87.492 Y94.955 E151.56428
G1 X87.328 Y94.916 E151.57164
G1 X87.199 Y94.806 E151.57904
G1 X87.13 Y94.593 E151.58881
G0 F7200 X86.605 Y94.593
G1 F3600 X86.7 Y94.968 E151.6057
G1 X86.858 Y95.205 E151.61813
G1 X87.207 Y95.427 E151.63619
G1 X87.492 Y95.48 E151.64885
G1 X163.692 Y95.48 E154.97527
G1 X164.067 Y95.385 E154.99216
G1 X164.304 Y95.227 E155.0046
G1 X164.526 Y94.878 E155.02265
G1 X164.579 Y94.593 E155.03531
G1 X164.579 Y88.243 E155.31251
G1 X164.484 Y87.868 E155.3294
G1 X164.326 Y87.631 E155.34183
G1 X163.977 Y87.409 E155.35989
G1 X163.692 Y87.356 E155.37254
G1 X87.492 Y87.356 E158.69897
G1 X87.117 Y87.451 E158.71586
G1 X86.88 Y87.609 E158.72829
G1 X86.658 Y87.958 E158.74635
G1 X86.605 Y88.243 E158.759
G1 X86.605 Y94.593 E159.03621
G1 F2700 E158.53621
G0 F7200 X87.917 Y114.654
G1 F2700 E159.03621
G1 F3600 X164.848 Y114.654 E162.39455
G1 X166.263 Y114.937 E162.45754
G1 X167.433 Y115.583 E162.51588
G1 X168.378 Y116.371 E162.5696
G1 X169.241 Y117.766 E162.64121
G1 X169.308 Y117.929 E162.6489
G1 X169.617 Y119.328 E162.71144
G1 X169.617 Y151.809 E164.12937
G1 X169.334 Y153.224 E164.19236
G1 X168.688 Y154.394 E164.2507
G1 X167.9 Y155.339 E164.30442
G1 X166.505 Y156.202 E164.37602
G1 X166.342 Y156.269 E164.38372
G1 X164.943 Y156.578 E164.44626
G1 X88.012 Y156.578 E167.8046
G1 X86.597 Y156.295 E167.8676
G1 X85.427 Y155.649 E167.92594
G1 X84.482 Y154.861 E167.97965
G1 X83.619 Y153.466 E168.05126
G1 X83.552 Y153.303 E168.05895
G1 X83.243 Y151.904 E168.1215
G1 X83.243 Y119.423 E169.53942
